;FLAVOR:Marlin
;TIME:26150
;Filament used: 18.7137m
;Layer height: 0.2
;MINX:62.421
;MINY:171.564
;MINZ:0.2
;MAXX:337.579
;MAXY:228.436
;MAXZ:32.6
;Generated with Cura_SteamEngine 4.3.0
M140 S65
M105
M190 S65
M104 S230
M105
M109 S230
M82 ;absolute extrusion mode
M201 X500.00 Y500.00 Z100.00 E5000.00 ;Setup machine max acceleration
M203 X500.00 Y500.00 Z10.00 E50.00 ;Setup machine max feedrate
M204 P500.00 R1000.00 T500.00 ;Setup Print/Retract/Travel acceleration
M205 X8.00 Y8.00 Z0.40 E5.00 ;Setup Jerk
M220 S100 ;Reset Feedrate
M221 S100 ;Reset Flowrate

G28 ;Home

G92 E0 ;Reset Extruder
G1 Z2.0 F3000 ;Move Z Axis up
G1 X10.1 Y20 Z0.28 F5000.0 ;Move to start position
G1 X10.1 Y200.0 Z0.28 F1500.0 E15 ;Draw the first line
G1 X10.4 Y200.0 Z0.28 F5000.0 ;Move to side a little
G1 X10.4 Y20 Z0.28 F1500.0 E30 ;Draw the second line
G92 E0 ;Reset Extruder
G1 Z2.0 F3000 ;Move Z Axis up

G92 E0
G92 E0
G1 F2700 E-5
;LAYER_COUNT:163
;LAYER:0
M107
G0 F6000 X67.443 Y172.121 Z0.2
;TYPE:SKIRT
G1 F2700 E0
G1 F1200 X68.19 Y171.866 E0.02625
G1 X68.959 Y171.687 E0.05251
G1 X69.743 Y171.587 E0.0788
G1 X70.338 Y171.564 E0.09861
G1 X329.662 Y171.564 E8.72376
G1 X330.451 Y171.604 E8.75003
G1 X331.231 Y171.723 E8.77628
G1 X331.996 Y171.921 E8.80256
G1 X332.736 Y172.195 E8.8288
G1 X333.445 Y172.543 E8.85507
G1 X334.116 Y172.961 E8.88137
G1 X334.74 Y173.444 E8.90761
G1 X335.177 Y173.849 E8.92743
G1 X335.294 Y173.966 E8.93293
G1 X335.824 Y174.552 E8.95921
G1 X336.291 Y175.188 E8.98546
G1 X336.692 Y175.868 E9.01171
G1 X337.022 Y176.586 E9.03799
G1 X337.277 Y177.333 E9.06425
G1 X337.456 Y178.102 E9.09051
G1 X337.556 Y178.886 E9.1168
G1 X337.579 Y179.481 E9.1366
G1 X337.579 Y218.107 E10.42131
G1 X337.555 Y218.721 E10.44174
G1 X337.526 Y219.088 E10.45399
G1 X337.347 Y220.243 E10.49286
G1 X337.255 Y220.638 E10.50635
G1 X337.037 Y221.397 E10.53262
G1 X336.87 Y221.84 E10.54836
G1 X336.718 Y222.209 E10.56164
G1 X336.194 Y223.251 E10.60043
G1 X335.99 Y223.591 E10.61362
G1 X335.55 Y224.247 E10.63989
G1 X335.241 Y224.635 E10.65639
G1 X334.983 Y224.938 E10.66962
G1 X334.441 Y225.512 E10.69588
G1 X334.143 Y225.784 E10.7093
G1 X333.842 Y226.044 E10.72253
G1 X333.219 Y226.529 E10.74879
G1 X332.846 Y226.775 E10.76365
G1 X332.5 Y226.989 E10.77718
G1 X331.808 Y227.37 E10.80345
G1 X331.431 Y227.541 E10.81722
G1 X331.071 Y227.693 E10.83022
G1 X330.329 Y227.963 E10.85648
G1 X329.874 Y228.088 E10.87218
G1 X329.486 Y228.182 E10.88545
G1 X328.71 Y228.329 E10.91172
G1 X328.313 Y228.373 E10.92501
G1 X327.915 Y228.407 E10.93829
G1 X327.252 Y228.435 E10.96037
G1 X321.959 Y228.436 E11.13641
G1 X321.171 Y228.396 E11.16265
G1 X320.39 Y228.277 E11.18893
G1 X319.626 Y228.079 E11.21518
G1 X318.885 Y227.805 E11.24146
G1 X318.176 Y227.458 E11.26771
G1 X317.506 Y227.04 E11.29398
G1 X316.881 Y226.557 E11.32025
G1 X316.443 Y226.151 E11.34011
G1 X316.326 Y226.034 E11.34562
G1 X315.796 Y225.448 E11.37189
G1 X315.329 Y224.812 E11.39814
G1 X314.928 Y224.132 E11.42439
G1 X314.598 Y223.414 E11.45068
G1 X314.343 Y222.667 E11.47693
G1 X314.164 Y221.898 E11.50319
G1 X314.064 Y221.114 E11.52948
G1 X314.041 Y220.519 E11.54928
G1 X314.041 Y196.414 E12.35102
G1 X85.959 Y196.414 E19.93706
G1 X85.959 Y220.519 E20.73879
G1 X85.919 Y221.308 E20.76507
G1 X85.8 Y222.088 E20.79131
G1 X85.602 Y222.853 E20.81759
G1 X85.328 Y223.593 E20.84384
G1 X84.98 Y224.302 E20.87011
G1 X84.562 Y224.973 E20.8964
G1 X84.079 Y225.597 E20.92265
G1 X83.674 Y226.034 E20.94246
G1 X83.557 Y226.151 E20.94797
G1 X82.971 Y226.681 E20.97425
G1 X82.335 Y227.148 E21.00049
G1 X81.655 Y227.549 E21.02675
G1 X80.937 Y227.879 E21.05303
G1 X80.19 Y228.134 E21.07928
G1 X79.421 Y228.313 E21.10554
G1 X78.637 Y228.413 E21.13183
G1 X78.042 Y228.436 E21.15163
G1 X72.814 Y228.436 E21.32552
G1 X72.283 Y228.418 E21.34319
G1 X71.843 Y228.388 E21.35786
G1 X71.059 Y228.294 E21.38412
G1 X70.603 Y228.202 E21.39959
G1 X70.217 Y228.112 E21.41278
G1 X69.458 Y227.894 E21.43904
G1 X69.014 Y227.727 E21.45482
G1 X68.643 Y227.574 E21.46817
G1 X67.929 Y227.236 E21.49444
G1 X67.581 Y227.038 E21.50776
G1 X67.242 Y226.833 E21.52093
G1 X66.588 Y226.39 E21.54721
G1 X66.22 Y226.095 E21.56289
G1 X65.916 Y225.836 E21.57618
G1 X65.341 Y225.294 E21.60246
G1 X65.069 Y224.995 E21.6159
G1 X64.811 Y224.696 E21.62904
G1 X64.326 Y224.072 E21.65532
G1 X64.083 Y223.704 E21.66999
G1 X63.872 Y223.363 E21.68333
G1 X63.491 Y222.672 E21.70957
G1 X63.316 Y222.285 E21.7237
G1 X63.159 Y221.912 E21.73716
G1 X62.89 Y221.17 E21.76341
G1 X62.762 Y220.703 E21.77952
G1 X62.671 Y220.323 E21.79251
G1 X62.487 Y219.193 E21.83059
G1 X62.452 Y218.797 E21.84381
G1 X62.422 Y218.11 E21.86669
G1 X62.421 Y179.481 E23.15149
G1 X62.461 Y178.693 E23.17773
G1 X62.58 Y177.912 E23.20401
G1 X62.778 Y177.147 E23.23029
G1 X63.052 Y176.407 E23.25654
G1 X63.4 Y175.698 E23.28281
G1 X63.817 Y175.027 E23.30908
G1 X64.301 Y174.403 E23.33535
G1 X64.706 Y173.966 E23.35517
G1 X64.823 Y173.849 E23.36067
G1 X65.409 Y173.319 E23.38695
G1 X66.045 Y172.852 E23.41319
G1 X66.725 Y172.451 E23.43945
G1 X67.443 Y172.121 E23.46573
G0 F6000 X67.666 Y172.463
G1 F1200 X68.397 Y172.223 E23.49132
G1 X69.148 Y172.06 E23.51688
G1 X69.913 Y171.976 E23.54248
G1 X70.338 Y171.964 E23.55662
G1 X329.662 Y171.964 E32.18177
G1 X330.43 Y172.004 E32.20735
G1 X331.19 Y172.123 E32.23293
G1 X331.933 Y172.321 E32.25851
G1 X332.652 Y172.595 E32.2841
G1 X333.338 Y172.942 E32.30967
G1 X333.985 Y173.358 E32.33525
G1 X334.585 Y173.839 E32.36083
G1 X334.895 Y174.131 E32.37499
G1 X335.012 Y174.248 E32.3805
G1 X335.526 Y174.82 E32.40608
G1 X335.979 Y175.442 E32.43167
G1 X336.365 Y176.107 E32.45724
G1 X336.68 Y176.809 E32.48283
G1 X336.92 Y177.54 E32.50842
G1 X337.083 Y178.291 E32.53398
G1 X337.167 Y179.056 E32.55958
G1 X337.179 Y179.481 E32.57372
G1 X337.179 Y218.107 E33.85843
G1 X337.156 Y218.69 E33.87783
G1 X337.127 Y219.057 E33.89008
G1 X336.957 Y220.153 E33.92697
G1 X336.865 Y220.548 E33.94046
G1 X336.652 Y221.287 E33.96604
G1 X336.5 Y221.687 E33.98027
G1 X336.348 Y222.056 E33.99354
G1 X335.851 Y223.045 E34.03036
G1 X335.647 Y223.385 E34.04354
G1 X335.218 Y224.023 E34.06912
G1 X334.936 Y224.375 E34.08412
G1 X334.678 Y224.678 E34.09735
G1 X333.881 Y225.481 E34.13498
G1 X333.58 Y225.741 E34.14821
G1 X332.973 Y226.213 E34.17379
G1 X332.636 Y226.435 E34.18721
G1 X332.29 Y226.649 E34.20074
G1 X331.275 Y227.172 E34.23872
G1 X330.915 Y227.324 E34.25171
G1 X330.192 Y227.586 E34.27729
G1 X329.779 Y227.699 E34.29153
G1 X329.391 Y227.793 E34.30481
G1 X328.279 Y227.974 E34.34228
G1 X327.881 Y228.008 E34.35557
G1 X327.252 Y228.035 E34.37651
G1 X321.959 Y228.036 E34.55255
G1 X321.191 Y227.996 E34.57813
G1 X320.431 Y227.877 E34.60372
G1 X319.688 Y227.679 E34.62929
G1 X318.969 Y227.406 E34.65487
G1 X318.283 Y227.059 E34.68044
G1 X317.636 Y226.643 E34.70603
G1 X317.036 Y226.162 E34.7316
G1 X316.725 Y225.869 E34.74581
G1 X316.608 Y225.752 E34.75132
G1 X316.094 Y225.18 E34.77689
G1 X315.641 Y224.558 E34.80249
G1 X315.255 Y223.893 E34.82806
G1 X314.94 Y223.191 E34.85365
G1 X314.7 Y222.46 E34.87924
G1 X314.537 Y221.709 E34.9048
G1 X314.453 Y220.944 E34.9304
G1 X314.441 Y220.519 E34.94454
G1 X314.441 Y196.014 E35.75958
G1 X85.559 Y196.014 E43.37223
G1 X85.559 Y220.519 E44.18727
G1 X85.519 Y221.287 E44.21285
G1 X85.4 Y222.047 E44.23843
G1 X85.202 Y222.79 E44.26401
G1 X84.928 Y223.509 E44.2896
G1 X84.581 Y224.195 E44.31517
G1 X84.165 Y224.842 E44.34075
G1 X83.684 Y225.442 E44.36633
G1 X83.392 Y225.752 E44.38049
G1 X83.275 Y225.869 E44.386
G1 X82.703 Y226.383 E44.41157
G1 X82.081 Y226.836 E44.43717
G1 X81.416 Y227.222 E44.46274
G1 X80.714 Y227.537 E44.48833
G1 X79.983 Y227.777 E44.51392
G1 X79.232 Y227.94 E44.53948
G1 X78.467 Y228.024 E44.56508
G1 X78.042 Y228.036 E44.57922
G1 X72.814 Y228.036 E44.7531
G1 X72.311 Y228.019 E44.76984
G1 X71.871 Y227.989 E44.78451
G1 X71.107 Y227.897 E44.81011
G1 X70.694 Y227.813 E44.82412
G1 X70.308 Y227.723 E44.83731
G1 X69.569 Y227.509 E44.86289
G1 X69.167 Y227.357 E44.87719
G1 X68.796 Y227.204 E44.89054
G1 X67.788 Y226.695 E44.92809
G1 X67.449 Y226.49 E44.94127
G1 X66.812 Y226.059 E44.96685
G1 X66.479 Y225.791 E44.98107
G1 X66.175 Y225.532 E44.99435
G1 X65.371 Y224.733 E45.03205
G1 X65.113 Y224.434 E45.04519
G1 X64.642 Y223.827 E45.07074
G1 X64.423 Y223.494 E45.084
G1 X64.212 Y223.153 E45.09733
G1 X63.685 Y222.13 E45.13561
G1 X63.528 Y221.757 E45.14907
G1 X63.266 Y221.033 E45.17468
G1 X63.151 Y220.609 E45.18929
G1 X63.06 Y220.229 E45.20229
G1 X62.886 Y219.158 E45.23837
G1 X62.851 Y218.762 E45.2516
G1 X62.822 Y218.11 E45.2733
G1 X62.821 Y179.481 E46.55811
G1 X62.861 Y178.713 E46.58369
G1 X62.98 Y177.953 E46.60927
G1 X63.178 Y177.21 E46.63485
G1 X63.452 Y176.491 E46.66044
G1 X63.799 Y175.805 E46.68601
G1 X64.215 Y175.158 E46.71159
G1 X64.696 Y174.558 E46.73717
G1 X64.988 Y174.248 E46.75134
G1 X65.105 Y174.131 E46.75684
G1 X65.677 Y173.617 E46.78242
G1 X66.299 Y173.164 E46.80801
G1 X66.964 Y172.778 E46.83358
G1 X67.666 Y172.463 E46.85917
G0 F6000 X67.887 Y172.807
G1 F1200 X68.601 Y172.583 E46.88406
G1 X69.334 Y172.436 E46.90893
G1 X70.338 Y172.364 E46.94241
G1 X329.662 Y172.364 E55.56756
G1 X330.409 Y172.404 E55.59244
G1 X331.147 Y172.523 E55.6173
G1 X331.869 Y172.721 E55.6422
G1 X332.565 Y172.994 E55.66707
G1 X333.228 Y173.341 E55.69196
G1 X333.851 Y173.756 E55.71686
G1 X334.612 Y174.414 E55.75032
G1 X334.729 Y174.531 E55.75582
G1 X335.229 Y175.088 E55.78071
G1 X335.666 Y175.694 E55.80556
G1 X336.037 Y176.344 E55.83046
G1 X336.336 Y177.03 E55.85535
G1 X336.56 Y177.744 E55.88024
G1 X336.707 Y178.477 E55.9051
G1 X336.779 Y179.481 E55.93858
G1 X336.779 Y218.107 E57.22329
G1 X336.757 Y218.658 E57.24163
G1 X336.728 Y219.025 E57.25387
G1 X336.568 Y220.062 E57.28877
G1 X336.476 Y220.457 E57.30226
G1 X336.267 Y221.175 E57.32713
G1 X336.13 Y221.535 E57.33994
G1 X335.978 Y221.904 E57.35322
G1 X335.508 Y222.839 E57.38802
G1 X335.304 Y223.179 E57.40121
G1 X334.886 Y223.799 E57.42608
G1 X334.632 Y224.116 E57.43959
G1 X334.374 Y224.419 E57.45283
G1 X333.62 Y225.178 E57.48841
G1 X333.319 Y225.438 E57.50164
G1 X332.425 Y226.094 E57.53852
G1 X332.079 Y226.308 E57.55205
G1 X331.12 Y226.804 E57.58796
G1 X330.76 Y226.956 E57.60096
G1 X330.056 Y227.209 E57.62584
G1 X329.685 Y227.31 E57.63863
G1 X329.297 Y227.404 E57.65191
G1 X328.245 Y227.576 E57.68736
G1 X327.847 Y227.61 E57.70065
G1 X327.252 Y227.635 E57.72045
G1 X321.959 Y227.636 E57.8965
G1 X321.212 Y227.596 E57.92138
G1 X320.474 Y227.477 E57.94624
G1 X319.752 Y227.279 E57.97114
G1 X319.056 Y227.006 E57.99601
G1 X318.393 Y226.66 E58.02088
G1 X317.77 Y226.245 E58.04578
G1 X317.008 Y225.586 E58.07929
G1 X316.891 Y225.469 E58.08479
G1 X316.391 Y224.912 E58.10969
G1 X315.954 Y224.306 E58.13454
G1 X315.583 Y223.656 E58.15943
G1 X315.284 Y222.97 E58.18432
G1 X315.06 Y222.256 E58.20921
G1 X314.913 Y221.523 E58.23407
G1 X314.841 Y220.519 E58.26755
G1 X314.841 Y195.614 E59.0959
G1 X85.159 Y195.614 E66.73515
G1 X85.159 Y220.519 E67.56349
G1 X85.119 Y221.266 E67.58838
G1 X85 Y222.004 E67.61324
G1 X84.802 Y222.726 E67.63814
G1 X84.529 Y223.422 E67.66301
G1 X84.182 Y224.085 E67.68789
G1 X83.767 Y224.708 E67.71279
G1 X83.109 Y225.469 E67.74625
G1 X82.992 Y225.586 E67.75176
G1 X82.435 Y226.086 E67.77665
G1 X81.829 Y226.523 E67.8015
G1 X81.179 Y226.894 E67.82639
G1 X80.493 Y227.193 E67.85128
G1 X79.779 Y227.417 E67.87617
G1 X79.046 Y227.564 E67.90104
G1 X78.042 Y227.636 E67.93452
G1 X72.814 Y227.636 E68.1084
G1 X72.338 Y227.62 E68.12424
G1 X71.898 Y227.59 E68.13891
G1 X71.155 Y227.499 E68.16381
G1 X70.785 Y227.423 E68.17637
G1 X70.399 Y227.333 E68.18955
G1 X69.68 Y227.125 E68.21445
G1 X69.319 Y226.987 E68.2273
G1 X68.948 Y226.834 E68.24065
G1 X67.995 Y226.353 E68.27615
G1 X67.656 Y226.148 E68.28933
G1 X67.037 Y225.727 E68.31423
G1 X66.738 Y225.486 E68.327
G1 X66.434 Y225.227 E68.34028
G1 X65.674 Y224.472 E68.37592
G1 X65.416 Y224.173 E68.38905
G1 X64.763 Y223.283 E68.42577
G1 X64.552 Y222.942 E68.4391
G1 X64.053 Y221.975 E68.47529
G1 X63.896 Y221.602 E68.48876
G1 X63.643 Y220.898 E68.51364
G1 X63.54 Y220.516 E68.5268
G1 X63.449 Y220.136 E68.53979
G1 X63.284 Y219.122 E68.57396
G1 X63.249 Y218.726 E68.58718
G1 X63.222 Y218.11 E68.60769
G1 X63.221 Y179.481 E69.8925
G1 X63.261 Y178.734 E69.91738
G1 X63.38 Y177.996 E69.94224
G1 X63.578 Y177.274 E69.96714
G1 X63.851 Y176.578 E69.99201
G1 X64.198 Y175.915 E70.0169
G1 X64.613 Y175.292 E70.04179
G1 X65.271 Y174.531 E70.07525
G1 X65.388 Y174.414 E70.08076
G1 X65.945 Y173.914 E70.10565
G1 X66.551 Y173.477 E70.1305
G1 X67.201 Y173.106 E70.1554
G1 X67.887 Y172.807 E70.18029
G0 F6000 X68.106 Y173.153
G1 F1200 X68.802 Y172.945 E70.20445
G1 X69.517 Y172.815 E70.22862
G1 X70.338 Y172.764 E70.25598
G1 X329.662 Y172.764 E78.88113
G1 X330.387 Y172.804 E78.90528
G1 X331.104 Y172.923 E78.92945
G1 X331.803 Y173.121 E78.95361
G1 X332.476 Y173.394 E78.97777
G1 X333.115 Y173.739 E79.00192
G1 X333.712 Y174.153 E79.02609
G1 X334.329 Y174.697 E79.05345
G1 X334.446 Y174.814 E79.05895
G1 X334.93 Y175.355 E79.08309
G1 X335.353 Y175.946 E79.10727
G1 X335.707 Y176.58 E79.13142
G1 X335.99 Y177.249 E79.15558
G1 X336.198 Y177.945 E79.17974
G1 X336.328 Y178.66 E79.20391
G1 X336.379 Y179.481 E79.23127
G1 X336.379 Y218.107 E80.51597
G1 X336.358 Y218.627 E80.53328
G1 X336.329 Y218.994 E80.54553
G1 X336.178 Y219.971 E80.57841
G1 X336.086 Y220.366 E80.5919
G1 X335.761 Y221.383 E80.62741
G1 X335.609 Y221.752 E80.64068
G1 X335.165 Y222.634 E80.67353
G1 X334.961 Y222.974 E80.68671
G1 X334.327 Y223.857 E80.72287
G1 X334.069 Y224.16 E80.7361
G1 X333.358 Y224.876 E80.76967
G1 X333.057 Y225.136 E80.78289
G1 X332.215 Y225.754 E80.81763
G1 X331.869 Y225.968 E80.83116
G1 X330.964 Y226.435 E80.86504
G1 X330.604 Y226.587 E80.87803
G1 X329.591 Y226.921 E80.91351
G1 X329.203 Y227.015 E80.92679
G1 X328.211 Y227.177 E80.96022
G1 X327.813 Y227.211 E80.9735
G1 X327.252 Y227.235 E80.99218
G1 X321.959 Y227.236 E81.16823
G1 X321.234 Y227.196 E81.19238
G1 X320.517 Y227.077 E81.21655
G1 X319.818 Y226.88 E81.24071
G1 X319.145 Y226.607 E81.26486
G1 X318.506 Y226.261 E81.28903
G1 X317.909 Y225.848 E81.31317
G1 X317.291 Y225.303 E81.34058
G1 X317.174 Y225.186 E81.34608
G1 X316.69 Y224.645 E81.37023
G1 X316.267 Y224.054 E81.3944
G1 X315.913 Y223.42 E81.41855
G1 X315.63 Y222.751 E81.44271
G1 X315.422 Y222.055 E81.46687
G1 X315.292 Y221.34 E81.49104
G1 X315.241 Y220.519 E81.5184
G1 X315.241 Y195.214 E82.36005
G1 X84.759 Y195.214 E90.02591
G1 X84.759 Y220.519 E90.86756
G1 X84.719 Y221.244 E90.89171
G1 X84.6 Y221.961 E90.91588
G1 X84.402 Y222.66 E90.94005
G1 X84.129 Y223.333 E90.9642
G1 X83.784 Y223.972 E90.98836
G1 X83.37 Y224.569 E91.01252
G1 X82.826 Y225.186 E91.03988
G1 X82.709 Y225.303 E91.04538
G1 X82.168 Y225.787 E91.06953
G1 X81.577 Y226.21 E91.0937
G1 X80.943 Y226.564 E91.11785
G1 X80.274 Y226.847 E91.14201
G1 X79.578 Y227.055 E91.16617
G1 X78.863 Y227.185 E91.19034
G1 X78.042 Y227.236 E91.2177
G1 X72.814 Y227.236 E91.39158
G1 X72.365 Y227.221 E91.40653
G1 X71.925 Y227.191 E91.42119
G1 X70.875 Y227.034 E91.45651
G1 X70.489 Y226.944 E91.46969
G1 X69.472 Y226.618 E91.50521
G1 X69.101 Y226.465 E91.51856
G1 X68.202 Y226.011 E91.55206
G1 X67.863 Y225.806 E91.56523
G1 X66.998 Y225.182 E91.60071
G1 X66.694 Y224.923 E91.61399
G1 X65.977 Y224.211 E91.6476
G1 X65.719 Y223.912 E91.66073
G1 X65.104 Y223.073 E91.69533
G1 X64.893 Y222.732 E91.70867
G1 X64.422 Y221.819 E91.74284
G1 X64.265 Y221.446 E91.7563
G1 X63.929 Y220.423 E91.79211
G1 X63.838 Y220.043 E91.80511
G1 X63.683 Y219.087 E91.83732
G1 X63.648 Y218.691 E91.85054
G1 X63.622 Y218.11 E91.86989
G1 X63.621 Y179.481 E93.15469
G1 X63.661 Y178.756 E93.17884
