;FLAVOR:UltiGCode
;TIME:2980
;MATERIAL:7280
;MATERIAL2:0
;NOZZLE_DIAMETER:0.6
;MINX:68.748
;MINY:71.737
;MINZ:0.4
;MAXX:154.252
;MAXY:151.263
;MAXZ:4.3
;Generated with Cura_SteamEngine 4.3.0
M82 ;absolute extrusion mode

G92 E0
G92 E0
G10
;LAYER_COUNT:27
;LAYER:0
M107
G0 F3927.3 X71.178 Y74.119 Z0.4
;TYPE:SKIRT
G11
G1 F1800 X71.781 Y73.577 E0.17189
G1 X72.434 Y73.098 E0.34357
G1 X73.132 Y72.685 E0.51551
G1 X73.866 Y72.343 E0.68718
G1 X74.631 Y72.075 E0.85903
G1 X75.419 Y71.883 E1.03097
G1 X76.221 Y71.771 E1.20264
G1 X76.963 Y71.737 E1.36011
G1 X146.037 Y71.737 E16.0038
G1 X146.846 Y71.777 E16.17552
G1 X147.648 Y71.897 E16.34744
G1 X148.434 Y72.094 E16.51922
G1 X149.196 Y72.369 E16.69096
G1 X149.928 Y72.717 E16.86279
G1 X150.622 Y73.136 E17.03466
G1 X151.272 Y73.621 E17.20659
G1 X151.87 Y74.167 E17.37826
G1 X152.412 Y74.77 E17.55014
G1 X152.891 Y75.423 E17.72183
G1 X153.304 Y76.121 E17.89377
G1 X153.646 Y76.855 E18.06544
G1 X153.914 Y77.62 E18.23729
G1 X154.106 Y78.408 E18.40923
G1 X154.218 Y79.21 E18.5809
G1 X154.252 Y79.952 E18.73837
G1 X154.252 Y93.048 E21.51472
G1 X154.212 Y93.857 E21.68644
G1 X154.092 Y94.659 E21.85836
G1 X153.895 Y95.445 E22.03014
G1 X153.62 Y96.207 E22.20189
G1 X153.272 Y96.939 E22.37371
G1 X152.853 Y97.633 E22.54558
G1 X152.368 Y98.283 E22.71751
G1 X151.822 Y98.881 E22.88918
G1 X151.219 Y99.423 E23.06107
G1 X150.566 Y99.902 E23.23275
G1 X149.868 Y100.315 E23.40469
G1 X149.134 Y100.657 E23.57636
G1 X148.369 Y100.925 E23.74821
G1 X147.581 Y101.117 E23.92015
G1 X146.779 Y101.229 E24.09183
G1 X146.037 Y101.263 E24.24929
G1 X76.963 Y101.263 E38.89298
G1 X76.154 Y101.223 E39.0647
G1 X75.352 Y101.103 E39.23662
G1 X74.566 Y100.906 E39.4084
G1 X73.804 Y100.631 E39.58014
G1 X73.072 Y100.283 E39.75197
G1 X72.378 Y99.864 E39.92384
G1 X71.728 Y99.379 E40.09577
G1 X71.13 Y98.833 E40.26744
G1 X70.588 Y98.23 E40.43933
G1 X70.109 Y97.577 E40.61101
G1 X69.696 Y96.879 E40.78295
G1 X69.354 Y96.145 E40.95462
G1 X69.086 Y95.38 E41.12647
G1 X68.894 Y94.592 E41.29841
G1 X68.782 Y93.79 E41.47008
G1 X68.748 Y93.048 E41.62755
G1 X68.748 Y79.952 E44.4039
G1 X68.788 Y79.143 E44.57562
G1 X68.908 Y78.341 E44.74754
G1 X69.105 Y77.555 E44.91932
G1 X69.38 Y76.793 E45.09107
G1 X69.728 Y76.061 E45.2629
G1 X70.147 Y75.367 E45.43476
G1 X70.632 Y74.717 E45.60669
G1 X71.178 Y74.119 E45.77836
G0 F3927.3 X71.699 Y74.352
G1 F1800 X72.297 Y73.845 E45.94457
G1 X72.944 Y73.402 E46.1108
G1 X73.632 Y73.027 E46.27692
G1 X74.354 Y72.723 E46.443
G1 X75.104 Y72.495 E46.60918
G1 X75.874 Y72.345 E46.77549
G1 X76.963 Y72.267 E47.00695
G1 X146.037 Y72.267 E61.65064
G1 X146.82 Y72.307 E61.81685
G1 X147.594 Y72.426 E61.98287
G1 X148.353 Y72.624 E62.14916
G1 X149.087 Y72.898 E62.31526
G1 X149.79 Y73.246 E62.48155
G1 X150.454 Y73.663 E62.64778
G1 X151.071 Y74.145 E62.81376
G1 X151.637 Y74.688 E62.98005
G1 X152.144 Y75.286 E63.14625
G1 X152.587 Y75.933 E63.31249
G1 X152.962 Y76.621 E63.47861
G1 X153.266 Y77.343 E63.64468
G1 X153.494 Y78.093 E63.81087
G1 X153.644 Y78.863 E63.97718
G1 X153.722 Y79.952 E64.20864
G1 X153.722 Y93.048 E66.98499
G1 X153.682 Y93.831 E67.1512
G1 X153.563 Y94.605 E67.31722
G1 X153.365 Y95.364 E67.48351
G1 X153.091 Y96.098 E67.64961
G1 X152.743 Y96.801 E67.8159
G1 X152.326 Y97.465 E67.98213
G1 X151.844 Y98.082 E68.14811
G1 X151.301 Y98.648 E68.3144
G1 X150.703 Y99.155 E68.4806
G1 X150.056 Y99.598 E68.64684
G1 X149.368 Y99.973 E68.81295
G1 X148.646 Y100.277 E68.97903
G1 X147.896 Y100.505 E69.14522
G1 X147.126 Y100.655 E69.31153
G1 X146.037 Y100.733 E69.54299
G1 X76.963 Y100.733 E84.18667
G1 X76.18 Y100.693 E84.35289
G1 X75.406 Y100.574 E84.5189
G1 X74.647 Y100.376 E84.6852
G1 X73.913 Y100.102 E84.85129
G1 X73.21 Y99.754 E85.01759
G1 X72.546 Y99.337 E85.18381
G1 X71.929 Y98.855 E85.3498
G1 X71.363 Y98.312 E85.51608
G1 X70.856 Y97.714 E85.68229
G1 X70.413 Y97.067 E85.84853
G1 X70.038 Y96.379 E86.01464
G1 X69.734 Y95.657 E86.18072
G1 X69.506 Y94.907 E86.3469
G1 X69.356 Y94.137 E86.51321
G1 X69.278 Y93.048 E86.74467
G1 X69.278 Y79.952 E89.52102
G1 X69.318 Y79.169 E89.68724
G1 X69.437 Y78.395 E89.85325
G1 X69.635 Y77.636 E90.01955
G1 X69.909 Y76.902 E90.18564
G1 X70.257 Y76.199 E90.35194
G1 X70.674 Y75.535 E90.51816
G1 X71.156 Y74.918 E90.68415
G1 X71.699 Y74.352 E90.85043
G0 F3927.3 X71.681 Y75.126
G1 F1800 X72.219 Y74.595 E91.01069
G1 X72.811 Y74.125 E91.17093
G1 X73.45 Y73.719 E91.33143
G1 X74.127 Y73.383 E91.49166
G1 X74.836 Y73.12 E91.65198
G1 X75.569 Y72.934 E91.8123
G1 X76.318 Y72.826 E91.97273
G1 X76.963 Y72.797 E92.10961
G1 X146.037 Y72.797 E106.75329
G1 X146.792 Y72.837 E106.91358
G1 X147.539 Y72.956 E107.07394
G1 X148.269 Y73.154 E107.23429
G1 X148.974 Y73.428 E107.39464
G1 X149.646 Y73.774 E107.55488
G1 X150.278 Y74.19 E107.71529
G1 X150.863 Y74.67 E107.87571
G1 X151.394 Y75.208 E108.03596
G1 X151.864 Y75.8 E108.19621
G1 X152.27 Y76.439 E108.35671
G1 X152.606 Y77.116 E108.51694
G1 X152.869 Y77.825 E108.67726
G1 X153.055 Y78.558 E108.83758
G1 X153.163 Y79.307 E108.99801
G1 X153.192 Y79.952 E109.13488
G1 X153.192 Y93.048 E111.91124
G1 X153.152 Y93.803 E112.07152
G1 X153.033 Y94.55 E112.23188
G1 X152.835 Y95.28 E112.39223
G1 X152.561 Y95.985 E112.55258
G1 X152.215 Y96.657 E112.71282
G1 X151.799 Y97.289 E112.87323
G1 X151.319 Y97.874 E113.03365
G1 X150.781 Y98.405 E113.19391
G1 X150.189 Y98.875 E113.35415
G1 X149.55 Y99.281 E113.51465
G1 X148.873 Y99.617 E113.67488
G1 X148.164 Y99.88 E113.8352
G1 X147.431 Y100.066 E113.99552
G1 X146.682 Y100.174 E114.15595
G1 X146.037 Y100.203 E114.29283
G1 X76.963 Y100.203 E128.93652
G1 X76.208 Y100.163 E129.0968
G1 X75.461 Y100.044 E129.25716
G1 X74.731 Y99.846 E129.41751
G1 X74.026 Y99.572 E129.57786
G1 X73.354 Y99.226 E129.7381
G1 X72.722 Y98.81 E129.89851
G1 X72.137 Y98.33 E130.05893
G1 X71.606 Y97.792 E130.21918
G1 X71.136 Y97.2 E130.37943
G1 X70.73 Y96.561 E130.53993
G1 X70.394 Y95.884 E130.70016
G1 X70.131 Y95.175 E130.86048
G1 X69.945 Y94.442 E131.0208
G1 X69.837 Y93.693 E131.18123
G1 X69.808 Y93.048 E131.31811
G1 X69.808 Y79.952 E134.09446
G1 X69.848 Y79.197 E134.25474
G1 X69.967 Y78.45 E134.4151
G1 X70.165 Y77.72 E134.57545
G1 X70.439 Y77.015 E134.73581
G1 X70.785 Y76.343 E134.89604
G1 X71.201 Y75.711 E135.05645
G1 X71.681 Y75.126 E135.21687
G0 F3927.3 X72.204 Y75.343
G1 F1800 X72.738 Y74.849 E135.37109
G1 X73.323 Y74.417 E135.52526
G1 X73.952 Y74.051 E135.67954
G1 X74.618 Y73.756 E135.83397
G1 X75.311 Y73.536 E135.98811
G1 X76.025 Y73.394 E136.14244
G1 X76.963 Y73.327 E136.3418
G1 X146.037 Y73.327 E150.98549
G1 X146.764 Y73.367 E151.13985
G1 X147.482 Y73.486 E151.29414
G1 X148.182 Y73.684 E151.44836
G1 X148.857 Y73.957 E151.60272
G1 X149.497 Y74.302 E151.75686
G1 X150.096 Y74.716 E151.91123
G1 X150.646 Y75.193 E152.06557
G1 X151.14 Y75.727 E152.21979
G1 X151.572 Y76.312 E152.37396
G1 X151.938 Y76.941 E152.52824
G1 X152.233 Y77.607 E152.68267
G1 X152.453 Y78.3 E152.83681
G1 X152.595 Y79.014 E152.99114
G1 X152.662 Y79.952 E153.1905
G1 X152.662 Y93.048 E155.96685
G1 X152.622 Y93.775 E156.12121
G1 X152.503 Y94.493 E156.2755
G1 X152.305 Y95.193 E156.42973
G1 X152.032 Y95.868 E156.58409
G1 X151.687 Y96.508 E156.73823
G1 X151.273 Y97.107 E156.89259
G1 X150.796 Y97.657 E157.04693
G1 X150.262 Y98.151 E157.20116
G1 X149.677 Y98.583 E157.35533
G1 X149.048 Y98.949 E157.50961
G1 X148.382 Y99.244 E157.66403
G1 X147.689 Y99.464 E157.81817
G1 X146.975 Y99.606 E157.9725
G1 X146.037 Y99.673 E158.17187
G1 X76.963 Y99.673 E172.81555
G1 X76.236 Y99.633 E172.96991
G1 X75.518 Y99.514 E173.1242
G1 X74.818 Y99.316 E173.27843
G1 X74.143 Y99.043 E173.43279
G1 X73.503 Y98.698 E173.58692
G1 X72.904 Y98.284 E173.74129
G1 X72.354 Y97.807 E173.89563
G1 X71.86 Y97.273 E174.04985
G1 X71.428 Y96.688 E174.20402
G1 X71.062 Y96.059 E174.3583
G1 X70.767 Y95.393 E174.51273
G1 X70.547 Y94.7 E174.66687
G1 X70.405 Y93.986 E174.8212
G1 X70.338 Y93.048 E175.02056
G1 X70.338 Y79.952 E177.79692
G1 X70.378 Y79.225 E177.95127
G1 X70.497 Y78.507 E178.10557
G1 X70.695 Y77.807 E178.25979
G1 X70.968 Y77.132 E178.41415
G1 X71.313 Y76.492 E178.56829
G1 X71.727 Y75.893 E178.72265
G1 X72.204 Y75.343 E178.877
G0 F3927.3 X72.726 Y75.571
G1 F1800 X73.254 Y75.115 E179.0249
G1 X73.832 Y74.723 E179.17296
G1 X74.45 Y74.399 E179.32089
G1 X75.101 Y74.148 E179.4688
G1 X75.777 Y73.973 E179.61684
G1 X76.468 Y73.877 E179.76474
G1 X76.963 Y73.857 E179.86976
G1 X146.037 Y73.857 E194.51345
G1 X146.734 Y73.897 E194.66146
G1 X147.422 Y74.016 E194.80948
G1 X148.091 Y74.214 E194.95739
G1 X148.734 Y74.486 E195.1054
G1 X149.341 Y74.83 E195.25331
G1 X149.905 Y75.242 E195.40138
G1 X150.418 Y75.715 E195.54931
G1 X150.874 Y76.243 E195.69722
G1 X151.266 Y76.821 E195.84528
G1 X151.59 Y77.439 E195.99321
G1 X151.841 Y78.09 E196.14112
G1 X152.016 Y78.766 E196.28916
G1 X152.112 Y79.457 E196.43706
G1 X152.132 Y79.952 E196.54208
G1 X152.132 Y93.048 E199.31843
G1 X152.092 Y93.745 E199.46644
G1 X151.973 Y94.433 E199.61446
G1 X151.775 Y95.102 E199.76237
G1 X151.503 Y95.745 E199.91038
G1 X151.159 Y96.352 E200.05829
G1 X150.747 Y96.916 E200.20637
G1 X150.274 Y97.429 E200.3543
G1 X149.746 Y97.885 E200.5022
G1 X149.168 Y98.277 E200.65026
G1 X148.55 Y98.601 E200.79819
G1 X147.899 Y98.852 E200.9461
G1 X147.223 Y99.027 E201.09414
G1 X146.532 Y99.123 E201.24204
G1 X146.037 Y99.143 E201.34706
G1 X76.963 Y99.143 E215.99075
G1 X76.266 Y99.103 E216.13876
G1 X75.578 Y98.984 E216.28678
G1 X74.909 Y98.786 E216.43469
G1 X74.266 Y98.514 E216.5827
G1 X73.659 Y98.17 E216.73061
G1 X73.095 Y97.758 E216.87869
G1 X72.582 Y97.285 E217.02661
G1 X72.126 Y96.757 E217.17452
G1 X71.734 Y96.179 E217.32258
G1 X71.41 Y95.561 E217.47051
G1 X71.159 Y94.91 E217.61842
G1 X70.984 Y94.234 E217.76646
G1 X70.888 Y93.543 E217.91436
G1 X70.868 Y93.048 E218.01938
G1 X70.868 Y79.952 E220.79573
G1 X70.908 Y79.255 E220.94374
G1 X71.027 Y78.567 E221.09176
G1 X71.225 Y77.898 E221.23967
G1 X71.497 Y77.255 E221.38768
G1 X71.841 Y76.648 E221.53559
G1 X72.253 Y76.084 E221.68367
G1 X72.726 Y75.571 E221.8316
G0 F3927.3 X73.246 Y75.81
G1 F1800 X73.768 Y75.395 E221.97297
G1 X74.336 Y75.046 E222.1143
G1 X74.942 Y74.767 E222.25574
G1 X75.577 Y74.562 E222.3972
G1 X76.232 Y74.435 E222.53864
G1 X76.963 Y74.387 E222.69395
G1 X146.037 Y74.387 E237.33764
G1 X146.703 Y74.427 E237.47908
G1 X147.359 Y74.546 E237.62043
G1 X147.996 Y74.743 E237.76178
G1 X148.605 Y75.015 E237.90318
G1 X149.177 Y75.358 E238.04458
G1 X149.704 Y75.766 E238.18587
G1 X150.179 Y76.235 E238.32738
G1 X150.594 Y76.757 E238.46876
G1 X150.943 Y77.325 E238.61009
G1 X151.222 Y77.931 E238.75152
G1 X151.427 Y78.566 E238.89298
G1 X151.554 Y79.221 E239.03443
G1 X151.602 Y79.952 E239.18974
G1 X151.602 Y93.048 E241.96609
G1 X151.562 Y93.714 E242.10753
G1 X151.443 Y94.37 E242.24888
G1 X151.246 Y95.007 E242.39023
G1 X150.974 Y95.616 E242.53163
G1 X150.631 Y96.188 E242.67303
G1 X150.223 Y96.715 E242.81432
G1 X149.754 Y97.19 E242.95583
G1 X149.232 Y97.605 E243.09721
G1 X148.664 Y97.954 E243.23854
G1 X148.058 Y98.233 E243.37997
G1 X147.423 Y98.438 E243.52144
G1 X146.768 Y98.565 E243.66288
G1 X146.037 Y98.613 E243.81819
G1 X76.963 Y98.613 E258.46187
G1 X76.297 Y98.573 E258.60332
G1 X75.641 Y98.454 E258.74466
G1 X75.004 Y98.257 E258.88602
G1 X74.395 Y97.985 E259.02742
G1 X73.823 Y97.642 E259.16881
G1 X73.296 Y97.234 E259.31011
G1 X72.821 Y96.765 E259.45162
G1 X72.406 Y96.243 E259.593
G1 X72.057 Y95.675 E259.73433
G1 X71.778 Y95.069 E259.87576
G1 X71.573 Y94.434 E260.01722
G1 X71.446 Y93.779 E260.15867
G1 X71.398 Y93.048 E260.31397
G1 X71.398 Y79.952 E263.09033
G1 X71.438 Y79.286 E263.23177
G1 X71.557 Y78.63 E263.37311
G1 X71.754 Y77.993 E263.51447
G1 X72.026 Y77.384 E263.65587
G1 X72.369 Y76.812 E263.79726
G1 X72.777 Y76.285 E263.93856
G1 X73.246 Y75.81 E264.08007
G0 F3927.3 X73.301 Y76.496
G1 F1800 X73.765 Y76.063 E264.21462
G1 X74.279 Y75.692 E264.34901
G1 X74.836 Y75.388 E264.48353
G1 X75.427 Y75.157 E264.61806
G1 X76.042 Y75.002 E264.75251
G1 X76.963 Y74.917 E264.94859
G1 X146.037 Y74.917 E279.59228
G1 X146.67 Y74.957 E279.72675
G1 X147.293 Y75.076 E279.86121
G1 X147.896 Y75.273 E279.9957
G1 X148.47 Y75.544 E280.13026
G1 X149.005 Y75.885 E280.26476
G1 X149.493 Y76.29 E280.39921
G1 X149.926 Y76.754 E280.53375
G1 X150.297 Y77.268 E280.66814
G1 X150.601 Y77.825 E280.80267
G1 X150.832 Y78.416 E280.93719
G1 X150.987 Y79.031 E281.07165
G1 X151.072 Y79.952 E281.26773
G1 X151.072 Y93.048 E284.04408
G1 X151.032 Y93.681 E284.17855
G1 X150.913 Y94.304 E284.31301
G1 X150.716 Y94.907 E284.44749
G1 X150.445 Y95.481 E284.58206
G1 X150.104 Y96.016 E284.71656
G1 X149.699 Y96.504 E284.85101
G1 X149.235 Y96.937 E284.98555
G1 X148.721 Y97.308 E285.11994
G1 X148.164 Y97.612 E285.25447
G1 X147.573 Y97.843 E285.38899
G1 X146.958 Y97.998 E285.52345
G1 X146.037 Y98.083 E285.71953
G1 X76.963 Y98.083 E300.36322
G1 X76.33 Y98.043 E300.49768
G1 X75.707 Y97.924 E300.63214
G1 X75.104 Y97.727 E300.76663
G1 X74.53 Y97.456 E300.9012
G1 X73.995 Y97.115 E301.0357
G1 X73.507 Y96.71 E301.17014
G1 X73.074 Y96.246 E301.30469
G1 X72.703 Y95.732 E301.43908
G1 X72.399 Y95.175 E301.5736
G1 X72.168 Y94.584 E301.70813
G1 X72.013 Y93.969 E301.84258
G1 X71.928 Y93.048 E302.03866
G1 X71.928 Y79.952 E304.81502
G1 X71.968 Y79.319 E304.94948
G1 X72.087 Y78.696 E305.08394
G1 X72.284 Y78.093 E305.21843
G1 X72.555 Y77.519 E305.353
G1 X72.896 Y76.984 E305.4875
G1 X73.301 Y76.496 E305.62194
G0 F3927.3 X73.823 Y76.721
G1 F1800 X74.281 Y76.333 E305.7492
G1 X74.785 Y76.008 E305.87633
G1 X75.329 Y75.754 E306.00361
G1 X75.901 Y75.574 E306.13074
G1 X76.492 Y75.472 E306.25788
G1 X76.963 Y75.447 E306.35788
G1 X146.037 Y75.447 E321.00156
G1 X146.636 Y75.487 E321.12883
G1 X147.224 Y75.606 E321.25602
G1 X147.791 Y75.802 E321.3832
G1 X148.327 Y76.072 E321.51044
G1 X148.822 Y76.411 E321.63763
G1 X149.268 Y76.812 E321.76478
G1 X149.656 Y77.27 E321.89203
G1 X149.981 Y77.774 E322.01917
G1 X150.235 Y78.318 E322.14645
G1 X150.415 Y78.89 E322.27357
G1 X150.517 Y79.481 E322.40072
G1 X150.542 Y79.952 E322.50071
G1 X150.542 Y93.048 E325.27706
G1 X150.502 Y93.647 E325.40433
G1 X150.383 Y94.235 E325.53152
G1 X150.187 Y94.802 E325.6587
G1 X149.917 Y95.338 E325.78593
G1 X149.578 Y95.833 E325.91312
G1 X149.177 Y96.279 E326.04027
G1 X148.719 Y96.667 E326.16753
G1 X148.215 Y96.992 E326.29467
G1 X147.671 Y97.246 E326.42195
G1 X147.099 Y97.426 E326.54907
G1 X146.508 Y97.528 E326.67622
G1 X146.037 Y97.553 E326.77621
G1 X76.963 Y97.553 E341.4199
G1 X76.364 Y97.513 E341.54717
G1 X75.776 Y97.394 E341.67435
G1 X75.209 Y97.198 E341.80153
G1 X74.673 Y96.928 E341.92877
G1 X74.178 Y96.589 E342.05596
G1 X73.732 Y96.188 E342.18311
G1 X73.344 Y95.73 E342.31036
G1 X73.019 Y95.226 E342.4375
G1 X72.765 Y94.682 E342.56478
G1 X72.585 Y94.11 E342.69191
G1 X72.483 Y93.519 E342.81905
G1 X72.458 Y93.048 E342.91904
G1 X72.458 Y79.952 E345.6954
G1 X72.498 Y79.353 E345.82267
G1 X72.617 Y78.765 E345.94985
G1 X72.813 Y78.198 E346.07703
G1 X73.083 Y77.662 E346.20427
G1 X73.422 Y77.167 E346.33146
G1 X73.823 Y76.721 E346.45861
G0 F3927.3 X74.344 Y76.962
G1 F1800 X74.793 Y76.622 E346.57801
G1 X75.286 Y76.348 E346.69758
G1 X75.812 Y76.147 E346.81696
G1 X76.362 Y76.023 E346.93648
G1 X76.963 Y75.977 E347.06427
G1 X146.037 Y75.977 E361.70796
G1 X146.599 Y76.017 E361.8274
G1 X147.15 Y76.136 E361.94691
G1 X147.678 Y76.332 E362.06631
G1 X148.174 Y76.6 E362.18583
G1 X148.626 Y76.936 E362.30523
G1 X149.027 Y77.333 E362.42485
G1 X149.367 Y77.782 E362.54425
G1 X149.641 Y78.275 E362.66383
G1 X149.842 Y78.801 E362.7832
G1 X149.966 Y79.351 E362.90273
G1 X150.012 Y79.952 E363.03051
G1 X150.012 Y93.048 E365.80687
G1 X149.972 Y93.61 E365.92631
