;FLAVOR:UltiGCode
;TIME:3151
;MATERIAL:15910
;MATERIAL2:0
;NOZZLE_DIAMETER:0.8
;Generated with Cura_SteamEngine 4.0.0
M82 ;absolute extrusion mode

G92 E0
G10
;LAYER_COUNT:39
;LAYER:0
M107
;MESH:Chip.STL(1)
G0 F5400 X88.816 Y81.858 Z0.53
;TYPE:WALL-INNER
G11
G1 F2700 X90.341 Y82.183 E0.57848
G1 X91.81 Y82.66 E1.15149
G1 X93.23 Y83.292 E1.72813
G1 X94.568 Y84.065 E2.30142
G1 X95.83 Y84.982 E2.88017
G1 X96.982 Y86.018 E3.45497
G1 X98.018 Y87.17 E4.02977
G1 X98.935 Y88.432 E4.60852
G1 X99.708 Y89.77 E5.1818
G1 X100.34 Y91.19 E5.75845
G1 X100.817 Y92.659 E6.33146
G1 X101.142 Y94.184 E6.90994
G1 X101.303 Y95.722 E7.48365
G1 X101.303 Y97.278 E8.06093
G1 X101.142 Y98.816 E8.63465
G1 X100.817 Y100.341 E9.21313
G1 X100.34 Y101.81 E9.78614
G1 X99.708 Y103.23 E10.36278
G1 X98.935 Y104.568 E10.93606
G1 X98.018 Y105.83 E11.51482
G1 X96.982 Y106.982 E12.08961
G1 X95.83 Y108.018 E12.66441
G1 X94.568 Y108.935 E13.24317
G1 X93.23 Y109.708 E13.81645
G1 X91.81 Y110.34 E14.39309
G1 X90.341 Y110.817 E14.9661
G1 X88.816 Y111.142 E15.54458
G1 X87.278 Y111.303 E16.1183
G1 X85.722 Y111.303 E16.69558
G1 X84.184 Y111.142 E17.26929
G1 X82.659 Y110.817 E17.84777
G1 X81.19 Y110.34 E18.42078
G1 X79.77 Y109.708 E18.99742
G1 X78.432 Y108.935 E19.57071
G1 X77.17 Y108.018 E20.14946
G1 X76.018 Y106.982 E20.72426
G1 X74.982 Y105.83 E21.29906
G1 X74.065 Y104.568 E21.87781
G1 X73.292 Y103.23 E22.4511
G1 X72.66 Y101.81 E23.02774
G1 X72.183 Y100.341 E23.60075
G1 X71.858 Y98.816 E24.17923
G1 X71.697 Y97.278 E24.75295
G1 X71.697 Y95.722 E25.33022
G1 X71.858 Y94.184 E25.90394
G1 X72.183 Y92.659 E26.48242
G1 X72.66 Y91.19 E27.05543
G1 X73.292 Y89.77 E27.63207
G1 X74.065 Y88.432 E28.20536
G1 X74.982 Y87.17 E28.78411
G1 X76.018 Y86.018 E29.35891
G1 X77.17 Y84.982 E29.9337
G1 X78.432 Y84.065 E30.51246
G1 X79.77 Y83.292 E31.08574
G1 X81.19 Y82.66 E31.66238
G1 X82.659 Y82.183 E32.23539
G1 X84.184 Y81.858 E32.81388
G1 X85.722 Y81.697 E33.38759
G1 X87.278 Y81.697 E33.96487
G1 X88.816 Y81.858 E34.53858
G0 F5400 X88.925 Y81.216
;TYPE:WALL-OUTER
G1 F2700 X90.505 Y81.553 E35.13795
G1 X92.045 Y82.053 E35.73865
G1 X93.526 Y82.712 E36.34004
G1 X94.923 Y83.519 E36.93859
G1 X96.239 Y84.476 E37.54227
G1 X97.442 Y85.558 E38.14255
G1 X98.524 Y86.761 E38.74283
G1 X99.481 Y88.077 E39.34651
G1 X100.288 Y89.474 E39.94506
G1 X100.947 Y90.955 E40.54645
G1 X101.447 Y92.495 E41.14715
G1 X101.784 Y94.075 E41.74651
G1 X101.953 Y95.692 E42.34969
G1 X101.953 Y97.308 E42.94922
G1 X101.784 Y98.925 E43.5524
G1 X101.447 Y100.505 E44.15176
G1 X100.947 Y102.045 E44.75246
G1 X100.288 Y103.526 E45.35385
G1 X99.481 Y104.923 E45.9524
G1 X98.524 Y106.239 E46.55609
G1 X97.442 Y107.442 E47.15636
G1 X96.239 Y108.524 E47.75664
G1 X94.923 Y109.481 E48.36033
G1 X93.526 Y110.288 E48.95887
G1 X92.045 Y110.947 E49.56027
G1 X90.505 Y111.447 E50.16097
G1 X88.925 Y111.784 E50.76033
G1 X87.308 Y111.953 E51.3635
G1 X85.692 Y111.953 E51.96304
G1 X84.075 Y111.784 E52.56622
G1 X82.495 Y111.447 E53.16558
G1 X80.955 Y110.947 E53.76628
G1 X79.474 Y110.288 E54.36767
G1 X78.077 Y109.481 E54.96622
G1 X76.761 Y108.524 E55.5699
G1 X75.558 Y107.442 E56.17018
G1 X74.476 Y106.239 E56.77046
G1 X73.519 Y104.923 E57.37414
G1 X72.712 Y103.526 E57.97269
G1 X72.053 Y102.045 E58.57408
G1 X71.553 Y100.505 E59.17478
G1 X71.216 Y98.925 E59.77415
G1 X71.047 Y97.308 E60.37732
G1 X71.047 Y95.692 E60.97686
G1 X71.216 Y94.075 E61.58003
G1 X71.553 Y92.495 E62.1794
G1 X72.053 Y90.955 E62.7801
G1 X72.712 Y89.474 E63.38149
G1 X73.519 Y88.077 E63.98004
G1 X74.476 Y86.761 E64.58372
G1 X75.558 Y85.558 E65.184
G1 X76.761 Y84.476 E65.78428
G1 X78.077 Y83.519 E66.38796
G1 X79.474 Y82.712 E66.98651
G1 X80.955 Y82.053 E67.5879
G1 X82.495 Y81.553 E68.1886
G1 X84.075 Y81.216 E68.78796
G1 X85.692 Y81.047 E69.39114
G1 X87.308 Y81.047 E69.99067
G1 X88.925 Y81.216 E70.59385
G0 F5400 X89.316 Y81.299
G0 X89.159 Y82.032
G0 X88.703 Y82.539
;TYPE:SKIN
G1 F2700 X90.167 Y82.851 E71.14919
G1 X91.557 Y83.303 E71.69146
G1 X92.923 Y83.911 E72.24618
G1 X94.187 Y84.641 E72.78771
G1 X95.398 Y85.521 E73.34309
G1 X96.493 Y86.507 E73.88976
G1 X97.479 Y87.602 E74.43643
G1 X98.359 Y88.813 E74.9918
G1 X99.089 Y90.077 E75.53334
G1 X99.697 Y91.443 E76.08806
G1 X100.149 Y92.833 E76.63033
G1 X100.461 Y94.297 E77.18567
G1 X100.613 Y95.755 E77.72952
G1 X100.613 Y97.245 E78.28231
G1 X100.461 Y98.703 E78.82616
G1 X100.149 Y100.167 E79.3815
G1 X99.697 Y101.557 E79.92377
G1 X99.089 Y102.923 E80.47849
G1 X98.359 Y104.187 E81.02002
G1 X97.479 Y105.398 E81.5754
G1 X96.493 Y106.493 E82.12207
G1 X95.398 Y107.479 E82.66874
G1 X94.187 Y108.359 E83.22411
G1 X92.923 Y109.089 E83.76565
G1 X91.557 Y109.697 E84.32036
G1 X90.167 Y110.149 E84.86263
G1 X88.703 Y110.461 E85.41798
G1 X87.245 Y110.613 E85.96183
G1 X85.755 Y110.613 E86.51462
G1 X84.297 Y110.461 E87.05846
G1 X82.833 Y110.149 E87.61381
G1 X81.443 Y109.697 E88.15608
G1 X80.077 Y109.089 E88.71079
G1 X78.813 Y108.359 E89.25233
G1 X77.602 Y107.479 E89.8077
G1 X76.507 Y106.493 E90.35437
G1 X75.521 Y105.398 E90.90104
G1 X74.641 Y104.187 E91.45642
G1 X73.911 Y102.923 E91.99795
G1 X73.303 Y101.557 E92.55267
G1 X72.851 Y100.167 E93.09494
G1 X72.539 Y98.703 E93.65028
G1 X72.387 Y97.245 E94.19413
G1 X72.387 Y95.755 E94.74692
G1 X72.539 Y94.297 E95.29077
G1 X72.851 Y92.833 E95.84611
G1 X73.303 Y91.443 E96.38838
G1 X73.911 Y90.077 E96.9431
G1 X74.641 Y88.813 E97.48464
G1 X75.521 Y87.602 E98.04001
G1 X76.507 Y86.507 E98.58668
G1 X77.602 Y85.521 E99.13335
G1 X78.813 Y84.641 E99.68873
G1 X80.077 Y83.911 E100.23026
G1 X81.443 Y83.303 E100.78498
G1 X82.833 Y82.851 E101.32725
G1 X84.297 Y82.539 E101.88259
G1 X85.755 Y82.387 E102.42644
G1 X87.245 Y82.387 E102.97923
G1 X88.703 Y82.539 E103.52308
G0 F5400 X98.367 Y89.457
G1 F2700 X93.542 Y84.632 E106.05463
G1 X93.419 Y84.509
G0 F5400 X91.575 Y83.656
G1 F2700 X99.343 Y91.423 E110.13003
G1 X99.466 Y91.546
G0 F5400 X99.844 Y92.914
G1 F2700 X90.085 Y83.155 E115.25031
G0 F5400 X88.826 Y82.887
G1 F2700 X100.112 Y94.173 E121.17178
G0 F5400 X100.248 Y95.298
G1 F2700 X87.701 Y82.751 E127.75485
G0 F5400 X86.662 Y82.702
G1 F2700 X100.297 Y96.337 E134.90877
G0 F5400 X100.288 Y97.319
G1 F2700 X85.68 Y82.71 E142.57346
G0 F5400 X84.784 Y82.804
G1 F2700 X100.195 Y98.215 E150.6592
G0 F5400 X100.061 Y99.071
G1 F2700 X83.928 Y82.938 E159.12375
G0 F5400 X83.111 Y83.111
G1 F2700 X99.888 Y99.888 E167.9262
G0 F5400 X99.661 Y100.65
G1 F2700 X82.348 Y83.338 E177.0096
G0 F5400 X81.601 Y83.581
G1 F2700 X99.418 Y101.398 E186.3577
G0 F5400 X99.116 Y102.086
G1 F2700 X80.913 Y83.883 E195.90833
G0 F5400 X80.228 Y84.188
G1 F2700 X98.811 Y102.771 E205.65833
G0 F5400 X98.449 Y103.399
G1 F2700 X79.6 Y84.55 E215.5479
G0 F5400 X78.973 Y84.913
G1 F2700 X98.086 Y104.026 E225.57598
G0 F5400 X97.669 Y104.598
G1 F2700 X78.401 Y85.33 E235.68538
G0 F5400 X77.827 Y85.747
G1 F2700 X97.252 Y105.172 E245.87716
G0 F5400 X96.786 Y105.696
G1 F2700 X77.303 Y86.213 E256.09937
G0 F5400 X76.782 Y86.682
G1 F2700 X96.317 Y106.217 E266.34886
G0 F5400 X95.8 Y106.69
G1 F2700 X76.308 Y87.197 E276.57605
G0 F5400 X75.839 Y87.718
G1 F2700 X95.279 Y107.159 E286.77596
G0 F5400 X94.714 Y107.584
G1 F2700 X75.414 Y88.283 E296.90242
G0 F5400 X74.997 Y88.857
G1 F2700 X94.141 Y108 E306.9465
G0 F5400 X93.526 Y108.375
G1 F2700 X74.623 Y89.472 E316.8644
G0 F5400 X74.26 Y90.099
G1 F2700 X92.898 Y108.738 E326.64352
G0 F5400 X92.225 Y109.054
G1 F2700 X73.944 Y90.773 E336.23507
G0 F5400 X73.639 Y91.458
G1 F2700 X91.539 Y109.359 E345.62699
G0 F5400 X90.801 Y109.61
G1 F2700 X73.387 Y92.196 E354.76364
G0 F5400 X73.147 Y92.946
G1 F2700 X90.052 Y109.851 E363.63325
G0 F5400 X89.236 Y110.025
G1 F2700 X72.973 Y93.762 E372.16601
G0 F5400 X72.822 Y94.601
G1 F2700 X88.396 Y110.175 E380.33727
G0 F5400 X87.5 Y110.269
G1 F2700 X72.729 Y95.498 E388.08722
G0 F5400 X72.701 Y96.46
G1 F2700 X86.538 Y110.297 E395.34712
G0 F5400 X85.522 Y110.271
G1 F2700 X72.728 Y97.476 E402.06005
G0 F5400 X72.842 Y98.581
G1 F2700 X84.417 Y110.155 E408.13288
G0 F5400 X83.169 Y109.897
G1 F2700 X73.1 Y99.829 E413.41555
G1 X72.977 Y99.706
G0 F5400 X73.535 Y101.254
G1 F2700 X81.744 Y109.462 E417.72233
G1 X81.867 Y109.585
G0 F5400 X79.931 Y108.639
G1 F2700 X74.358 Y103.067 E420.64608
G1 X74.235 Y102.944
G10
;MESH:Chip.STL(1)(1)
G0 F5400 X100.798 Y92.664
G0 X102.708 Y92.256
G0 X123.416 Y86.034
G0 X124.997 Y87.182
G0 X138.801 Y81.956
G0 X138.816 Y81.858
;TYPE:WALL-INNER
G11
G1 F2700 X140.341 Y82.183 E421.22456
G1 X141.81 Y82.66 E421.79757
G1 X143.23 Y83.292 E422.37421
G1 X144.568 Y84.065 E422.94749
G1 X145.83 Y84.982 E423.52625
G1 X146.982 Y86.018 E424.10104
G1 X148.018 Y87.17 E424.67584
G1 X148.935 Y88.432 E425.2546
G1 X149.708 Y89.77 E425.82788
G1 X150.34 Y91.19 E426.40452
G1 X150.817 Y92.659 E426.97753
G1 X151.142 Y94.184 E427.55601
G1 X151.303 Y95.722 E428.12973
G1 X151.303 Y97.278 E428.70701
G1 X151.142 Y98.816 E429.28072
G1 X150.817 Y100.341 E429.8592
G1 X150.34 Y101.81 E430.43221
G1 X149.708 Y103.23 E431.00885
G1 X148.935 Y104.568 E431.58214
G1 X148.018 Y105.83 E432.16089
G1 X146.982 Y106.982 E432.73569
G1 X145.83 Y108.018 E433.31049
G1 X144.568 Y108.935 E433.88924
G1 X143.23 Y109.708 E434.46253
G1 X141.81 Y110.34 E435.03917
G1 X140.341 Y110.817 E435.61218
G1 X138.816 Y111.142 E436.19066
G1 X137.278 Y111.303 E436.76438
G1 X135.722 Y111.303 E437.34165
G1 X134.184 Y111.142 E437.91537
G1 X132.659 Y110.817 E438.49385
G1 X131.19 Y110.34 E439.06686
G1 X129.77 Y109.708 E439.6435
G1 X128.432 Y108.935 E440.21679
G1 X127.17 Y108.018 E440.79554
G1 X126.018 Y106.982 E441.37034
G1 X124.982 Y105.83 E441.94513
G1 X124.065 Y104.568 E442.52389
G1 X123.292 Y103.23 E443.09717
G1 X122.66 Y101.81 E443.67381
G1 X122.183 Y100.341 E444.24682
G1 X121.858 Y98.816 E444.8253
G1 X121.697 Y97.278 E445.39902
G1 X121.697 Y95.722 E445.9763
G1 X121.858 Y94.184 E446.55001
G1 X122.183 Y92.659 E447.12849
G1 X122.66 Y91.19 E447.7015
G1 X123.292 Y89.77 E448.27815
G1 X124.065 Y88.432 E448.85143
G1 X124.982 Y87.17 E449.43018
G1 X126.018 Y86.018 E450.00498
G1 X127.17 Y84.982 E450.57978
G1 X128.432 Y84.065 E451.15853
G1 X129.77 Y83.292 E451.73182
G1 X131.19 Y82.66 E452.30846
G1 X132.659 Y82.183 E452.88147
G1 X134.184 Y81.858 E453.45995
G1 X135.722 Y81.697 E454.03367
G1 X137.278 Y81.697 E454.61094
G1 X138.816 Y81.858 E455.18466
G0 F5400 X138.925 Y81.216
;TYPE:WALL-OUTER
G1 F2700 X140.505 Y81.553 E455.78402
G1 X142.045 Y82.053 E456.38472
G1 X143.526 Y82.712 E456.98611
G1 X144.923 Y83.519 E457.58466
G1 X146.239 Y84.476 E458.18834
G1 X147.442 Y85.558 E458.78862
G1 X148.524 Y86.761 E459.3889
G1 X149.481 Y88.077 E459.99259
G1 X150.288 Y89.474 E460.59113
G1 X150.947 Y90.955 E461.19252
G1 X151.447 Y92.495 E461.79322
G1 X151.784 Y94.075 E462.39259
G1 X151.953 Y95.692 E462.99576
G1 X151.953 Y97.308 E463.5953
G1 X151.784 Y98.925 E464.19847
G1 X151.447 Y100.505 E464.79784
G1 X150.947 Y102.045 E465.39854
G1 X150.288 Y103.526 E465.99993
G1 X149.481 Y104.923 E466.59848
G1 X148.524 Y106.239 E467.20216
G1 X147.442 Y107.442 E467.80244
G1 X146.239 Y108.524 E468.40272
G1 X144.923 Y109.481 E469.0064
G1 X143.526 Y110.288 E469.60495
G1 X142.045 Y110.947 E470.20634
G1 X140.505 Y111.447 E470.80704
G1 X138.925 Y111.784 E471.40641
G1 X137.308 Y111.953 E472.00958
G1 X135.692 Y111.953 E472.60912
G1 X134.075 Y111.784 E473.21229
G1 X132.495 Y111.447 E473.81166
G1 X130.955 Y110.947 E474.41236
G1 X129.474 Y110.288 E475.01375
G1 X128.077 Y109.481 E475.6123
G1 X126.761 Y108.524 E476.21598
G1 X125.558 Y107.442 E476.81626
G1 X124.476 Y106.239 E477.41654
G1 X123.519 Y104.923 E478.02022
G1 X122.712 Y103.526 E478.61877
G1 X122.053 Y102.045 E479.22016
G1 X121.553 Y100.505 E479.82086
G1 X121.216 Y98.925 E480.42022
G1 X121.047 Y97.308 E481.0234
G1 X121.047 Y95.692 E481.62293
G1 X121.216 Y94.075 E482.22611
G1 X121.553 Y92.495 E482.82547
G1 X122.053 Y90.955 E483.42617
G1 X122.712 Y89.474 E484.02756
G1 X123.519 Y88.077 E484.62611
G1 X124.476 Y86.761 E485.22979
G1 X125.558 Y85.558 E485.83007
G1 X126.761 Y84.476 E486.43035
G1 X128.077 Y83.519 E487.03403
G1 X129.474 Y82.712 E487.63258
G1 X130.955 Y82.053 E488.23397
G1 X132.495 Y81.553 E488.83467
G1 X134.075 Y81.216 E489.43404
G1 X135.692 Y81.047 E490.03721
G1 X137.308 Y81.047 E490.63675
G1 X138.925 Y81.216 E491.23992
G0 F5400 X139.316 Y81.299
G0 X139.159 Y82.032
G0 X138.703 Y82.539
;TYPE:SKIN
G1 F2700 X140.167 Y82.851 E491.79527
G1 X141.557 Y83.303 E492.33754
G1 X142.923 Y83.911 E492.89225
G1 X144.187 Y84.641 E493.43379
G1 X145.398 Y85.521 E493.98916
G1 X146.493 Y86.507 E494.53583
G1 X147.479 Y87.602 E495.0825
G1 X148.359 Y88.813 E495.63788
G1 X149.089 Y90.077 E496.17941
G1 X149.697 Y91.443 E496.73413
G1 X150.149 Y92.833 E497.2764
G1 X150.461 Y94.297 E497.83174
G1 X150.613 Y95.755 E498.37559
G1 X150.613 Y97.245 E498.92838
G1 X150.461 Y98.703 E499.47223
G1 X150.149 Y100.167 E500.02757
G1 X149.697 Y101.557 E500.56984
G1 X149.089 Y102.923 E501.12456
G1 X148.359 Y104.187 E501.66609
G1 X147.479 Y105.398 E502.22147
G1 X146.493 Y106.493 E502.76814
G1 X145.398 Y107.479 E503.31481
G1 X144.187 Y108.359 E503.87019
G1 X142.923 Y109.089 E504.41172
G1 X141.557 Y109.697 E504.96644
G1 X140.167 Y110.149 E505.50871
G1 X138.703 Y110.461 E506.06405
G1 X137.245 Y110.613 E506.6079
G1 X135.755 Y110.613 E507.16069
G1 X134.297 Y110.461 E507.70454
G1 X132.833 Y110.149 E508.25988
G1 X131.443 Y109.697 E508.80215
G1 X130.077 Y109.089 E509.35687
G1 X128.813 Y108.359 E509.8984
G1 X127.602 Y107.479 E510.45378
G1 X126.507 Y106.493 E511.00045
G1 X125.521 Y105.398 E511.54712
G1 X124.641 Y104.187 E512.1025
G1 X123.911 Y102.923 E512.64403
G1 X123.303 Y101.557 E513.19875
G1 X122.851 Y100.167 E513.74102
G1 X122.539 Y98.703 E514.29636
G1 X122.387 Y97.245 E514.84021
G1 X122.387 Y95.755 E515.393
G1 X122.539 Y94.297 E515.93685
G1 X122.851 Y92.833 E516.49219
G1 X123.303 Y91.443 E517.03446
G1 X123.911 Y90.077 E517.58918
G1 X124.641 Y88.813 E518.13071
G1 X125.521 Y87.602 E518.68609
G1 X126.507 Y86.507 E519.23276
G1 X127.602 Y85.521 E519.77943
G1 X128.813 Y84.641 E520.3348
G1 X130.077 Y83.911 E520.87634
G1 X131.443 Y83.303 E521.43106
G1 X132.833 Y82.851 E521.97333
G1 X134.297 Y82.539 E522.52867
G1 X135.755 Y82.387 E523.07252
G1 X137.245 Y82.387 E523.62531
G1 X138.703 Y82.539 E524.16916
G0 F5400 X147.326 Y87.929
G1 F2700 X145.07 Y85.673 E525.35282
G1 X144.947 Y85.55
G0 F5400 X142.455 Y84.048
G1 F2700 X148.95 Y90.543 E528.76057
G1 X149.073 Y90.666
G0 F5400 X149.61 Y92.193
G1 F2700 X140.806 Y83.389 E533.37979
G1 X140.683 Y83.266
G0 F5400 X139.445 Y83.018
G1 F2700 X149.981 Y93.554 E538.90775
G0 F5400 X150.193 Y94.755
G1 F2700 X138.244 Y82.807 E545.17681
G0 F5400 X137.149 Y82.702
G1 F2700 X150.297 Y95.85 E552.07521
G0 F5400 X150.297 Y96.84
G1 F2700 X136.159 Y82.702 E559.49304
G0 F5400 X135.226 Y82.759
G1 F2700 X150.241 Y97.773 E567.37075
G0 F5400 X150.146 Y98.668
G1 F2700 X134.331 Y82.853 E575.66846
G0 F5400 X133.514 Y83.027
G1 F2700 X149.972 Y99.484 E584.30327
G0 F5400 X149.78 Y100.282
G1 F2700 X132.716 Y83.219 E593.25603
G0 F5400 X131.97 Y83.462
G1 F2700 X149.537 Y101.03 E602.47323
G0 F5400 X149.266 Y101.749
G1 F2700 X131.251 Y83.733 E611.92548
G0 F5400 X130.566 Y84.038
G1 F2700 X148.961 Y102.433 E621.57684
G0 F5400 X148.628 Y103.09
G1 F2700 X129.909 Y84.371 E631.3982
G0 F5400 X129.281 Y84.734
G1 F2700 X148.265 Y103.717 E641.35833
G0 F5400 X147.874 Y104.316
G1 F2700 X128.682 Y85.125 E651.4276
G0 F5400 X128.11 Y85.542
G1 F2700 X147.457 Y104.89 E661.57871
G0 F5400 X147.017 Y105.439
G1 F2700 X127.56 Y85.982 E671.78728
G0 F5400 X127.039 Y86.451
G1 F2700 X146.548 Y105.96 E682.02313
G0 F5400 X146.057 Y106.459
G1 F2700 X126.538 Y86.94 E692.26423
G0 F5400 X126.07 Y87.462
