;FLAVOR:UltiGCode
;TIME:3551
;MATERIAL:19024
;MATERIAL2:0
;NOZZLE_DIAMETER:0.8
;MINX:58.484
;MINY:58.48
;MINZ:0.53
;MAXX:164.525
;MAXY:164.499
;MAXZ:5.93
;Generated with Cura_SteamEngine 4.3.0
M82 ;absolute extrusion mode

G92 E0
G92 E0
G10
;LAYER_COUNT:28
;LAYER:0
M107
G0 F5472 X74.022 Y73.952 Z0.53
;TYPE:SKIRT
G11
G1 F2280 X74.612 Y73.372 E0.30695
G1 X78.076 Y70.299 E2.0249
G1 X78.724 Y69.781 E2.33268
G1 X82.488 Y67.079 E4.05168
G1 X83.185 Y66.631 E4.35908
G1 X87.204 Y64.332 E6.07684
G1 X87.944 Y63.958 E6.38445
G1 X92.18 Y62.084 E8.10293
G1 X92.955 Y61.788 E8.41071
G1 X97.361 Y60.36 E10.12905
G1 X98.16 Y60.146 E10.43593
G1 X102.692 Y59.177 E12.1553
G1 X103.511 Y59.045 E12.46307
G1 X108.115 Y58.548 E14.18108
G1 X108.941 Y58.502 E14.488
G1 X113.572 Y58.48 E16.20612
G1 X114.399 Y58.519 E16.51328
G1 X119.008 Y58.973 E18.23149
G1 X119.831 Y59.097 E18.54027
G1 X124.372 Y60.025 E20.2598
G1 X125.172 Y60.232 E20.56638
G1 X129.591 Y61.62 E22.2848
G1 X130.368 Y61.909 E22.59236
G1 X134.619 Y63.743 E24.30999
G1 X135.363 Y64.11 E24.61777
G1 X139.404 Y66.373 E26.33606
G1 X140.106 Y66.815 E26.64383
G1 X143.893 Y69.482 E28.36225
G1 X144.546 Y69.994 E28.6701
G1 X148.039 Y73.037 E30.3888
G1 X148.633 Y73.611 E30.69525
G1 X151.797 Y76.997 E32.41454
G1 X152.332 Y77.632 E32.72259
G1 X155.129 Y81.324 E34.44101
G1 X155.594 Y82.009 E34.74817
G1 X157.997 Y85.969 E36.46667
G1 X158.39 Y86.699 E36.77425
G1 X160.372 Y90.884 E38.49221
G1 X160.688 Y91.651 E38.79997
G1 X162.23 Y96.021 E40.51921
G1 X162.465 Y96.814 E40.82606
G1 X163.55 Y101.316 E42.54412
G1 X163.703 Y102.133 E42.8525
G1 X164.318 Y106.723 E44.57061
G1 X164.385 Y107.549 E44.87806
G1 X164.525 Y112.179 E46.59657
G1 X164.508 Y113.002 E46.90197
G1 X164.174 Y117.622 E48.62046
G1 X164.071 Y118.448 E48.92928
G1 X163.262 Y123.009 E50.64783
G1 X163.075 Y123.82 E50.9566
G1 X161.799 Y128.274 E52.67551
G1 X161.531 Y129.056 E52.9822
G1 X159.806 Y133.353 E54.70004
G1 X159.457 Y134.105 E55.00762
G1 X157.298 Y138.204 E56.7264
G1 X156.876 Y138.916 E57.03346
G1 X154.307 Y142.773 E58.75276
G1 X153.813 Y143.438 E59.0601
G1 X150.864 Y147.007 E60.77773
G1 X150.302 Y147.619 E61.08599
G1 X147 Y150.866 E62.8041
G1 X146.379 Y151.416 E63.11186
G1 X142.759 Y154.307 E64.8306
G1 X142.088 Y154.789 E65.13712
G1 X138.192 Y157.293 E66.85532
G1 X137.471 Y157.705 E67.16341
G1 X133.334 Y159.796 E68.88314
G1 X132.787 Y160.048 E69.10658
G1 X130.458 Y161.014 E70.04202
G1 X130.016 Y161.182 E70.21744
G1 X127.826 Y161.943 E71.07759
G1 X127.234 Y162.124 E71.30726
G1 X122.955 Y163.251 E72.94891
G1 X122.18 Y163.414 E73.24272
G1 X117.604 Y164.148 E74.96212
G1 X116.777 Y164.237 E75.27071
G1 X112.153 Y164.495 E76.98888
G1 X111.333 Y164.499 E77.2931
G1 X106.707 Y164.285 E79.01118
G1 X105.875 Y164.203 E79.32135
G1 X101.293 Y163.51 E81.04061
G1 X100.482 Y163.345 E81.34765
G1 X96 Y162.186 E83.06517
G1 X95.208 Y161.937 E83.37318
G1 X90.864 Y160.321 E85.09271
G1 X90.105 Y159.993 E85.39947
G1 X85.952 Y157.941 E87.11805
G1 X85.228 Y157.536 E87.42582
G1 X81.309 Y155.068 E89.14406
G1 X80.633 Y154.592 E89.45079
G1 X76.987 Y151.734 E91.16951
G1 X76.361 Y151.188 E91.47768
G1 X73.03 Y147.971 E93.19572
G1 X72.464 Y147.366 E93.50309
G1 X69.482 Y143.824 E95.22086
G1 X68.981 Y143.163 E95.52857
G1 X66.377 Y139.33 E97.24774
G1 X65.948 Y138.623 E97.55455
G1 X63.752 Y134.545 E99.2729
G1 X63.397 Y133.795 E99.58075
G1 X61.632 Y129.512 E101.29938
G1 X61.355 Y128.727 E101.60821
G1 X60.042 Y124.286 E103.32632
G1 X59.849 Y123.484 E103.63236
G1 X58.997 Y118.929 E105.35157
G1 X58.887 Y118.106 E105.65962
G1 X58.509 Y113.492 E107.37715
G1 X58.484 Y112.668 E107.68299
G1 X58.58 Y108.037 E109.40146
G1 X58.64 Y107.207 E109.7102
G1 X59.214 Y102.609 E111.4293
G1 X59.359 Y101.793 E111.73678
G1 X60.402 Y97.28 E113.45523
G1 X60.63 Y96.484 E113.76242
G1 X62.131 Y92.103 E115.48052
G1 X62.439 Y91.333 E115.7882
G1 X64.383 Y87.129 E117.50656
G1 X64.771 Y86.393 E117.81524
G1 X67.139 Y82.411 E119.53405
G1 X67.597 Y81.724 E119.84037
G1 X70.36 Y78.007 E121.55863
G1 X70.889 Y77.367 E121.86669
G1 X74.022 Y73.952 E123.58606
G0 F5472 X74.538 Y74.425
G1 F2280 X75.076 Y73.896 E123.86598
G1 X78.54 Y70.823 E125.58394
G1 X79.132 Y70.35 E125.86507
G1 X82.896 Y67.648 E127.58406
G1 X83.532 Y67.239 E127.8646
G1 X87.551 Y64.94 E129.58236
G1 X88.227 Y64.598 E129.86343
G1 X92.463 Y62.724 E131.58191
G1 X93.171 Y62.454 E131.86303
G1 X97.577 Y61.026 E133.58136
G1 X98.306 Y60.83 E133.86143
G1 X102.838 Y59.861 E135.5808
G1 X103.586 Y59.741 E135.86186
G1 X108.19 Y59.244 E137.57986
G1 X108.944 Y59.202 E137.86003
G1 X113.575 Y59.18 E139.57815
G1 X114.331 Y59.215 E139.85893
G1 X118.94 Y59.669 E141.57714
G1 X119.691 Y59.783 E141.85896
G1 X124.232 Y60.711 E143.57849
G1 X124.963 Y60.9 E143.85861
G1 X129.382 Y62.288 E145.57703
G1 X130.091 Y62.551 E145.85758
G1 X134.342 Y64.385 E147.57521
G1 X135.021 Y64.721 E147.85628
G1 X139.062 Y66.984 E149.57457
G1 X139.703 Y67.388 E149.85567
G1 X143.49 Y70.055 E151.5741
G1 X144.086 Y70.522 E151.85501
G1 X147.579 Y73.565 E153.5737
G1 X148.121 Y74.089 E153.85339
G1 X151.285 Y77.475 E155.57268
G1 X151.774 Y78.055 E155.85413
G1 X154.571 Y81.747 E157.57255
G1 X154.996 Y82.372 E157.85296
G1 X157.399 Y86.332 E159.57145
G1 X157.758 Y86.999 E159.85247
G1 X159.74 Y91.184 E161.57043
G1 X160.028 Y91.884 E161.85125
G1 X161.57 Y96.254 E163.57049
G1 X161.784 Y96.978 E163.85059
G1 X162.869 Y101.48 E165.56865
G1 X163.009 Y102.226 E165.85025
G1 X163.624 Y106.816 E167.56836
G1 X163.686 Y107.57 E167.84903
G1 X163.826 Y112.2 E169.56755
G1 X163.81 Y112.952 E169.8466
G1 X163.476 Y117.572 E171.5651
G1 X163.382 Y118.326 E171.847
G1 X162.573 Y122.887 E173.56554
G1 X162.402 Y123.627 E173.84731
G1 X161.126 Y128.081 E175.56622
G1 X160.881 Y128.795 E175.84628
G1 X159.156 Y133.092 E177.56412
G1 X158.838 Y133.779 E177.84498
G1 X156.679 Y137.878 E179.56376
G1 X156.293 Y138.527 E179.84391
G1 X153.724 Y142.384 E181.56321
G1 X153.273 Y142.992 E181.84406
G1 X150.324 Y146.561 E183.56169
G1 X149.811 Y147.12 E183.84317
G1 X146.509 Y150.367 E185.56128
G1 X145.943 Y150.869 E185.84196
G1 X142.323 Y153.76 E187.5607
G1 X141.71 Y154.2 E187.84065
G1 X137.814 Y156.704 E189.55885
G1 X137.156 Y157.081 E189.8402
G1 X133.019 Y159.172 E191.55994
G1 X132.519 Y159.401 E191.76397
G1 X130.19 Y160.367 E192.6994
G1 X129.787 Y160.521 E192.85946
G1 X127.597 Y161.282 E193.71961
G1 X127.056 Y161.447 E193.92945
G1 X122.777 Y162.574 E195.57109
G1 X122.069 Y162.723 E195.83952
G1 X117.493 Y163.457 E197.55891
G1 X116.738 Y163.539 E197.84067
G1 X112.114 Y163.797 E199.55884
G1 X111.365 Y163.8 E199.83672
G1 X106.739 Y163.586 E201.5548
G1 X105.98 Y163.511 E201.83776
G1 X101.398 Y162.818 E203.55702
G1 X100.657 Y162.667 E203.83758
G1 X96.175 Y161.508 E205.55509
G1 X95.452 Y161.281 E205.83624
G1 X91.108 Y159.665 E207.55576
G1 X90.415 Y159.366 E207.83578
G1 X86.262 Y157.314 E209.55436
G1 X85.601 Y156.943 E209.83557
G1 X81.682 Y154.475 E211.55381
G1 X81.065 Y154.041 E211.83368
G1 X77.419 Y151.183 E213.55239
G1 X76.847 Y150.685 E213.83376
G1 X73.516 Y147.468 E215.5518
G1 X72.999 Y146.915 E215.83266
G1 X70.017 Y143.373 E217.55044
G1 X69.56 Y142.769 E217.83144
G1 X66.956 Y138.936 E219.5506
G1 X66.565 Y138.291 E219.83043
G1 X64.369 Y134.213 E221.54879
G1 X64.044 Y133.528 E221.83007
G1 X62.279 Y129.245 E223.5487
G1 X62.027 Y128.529 E223.83031
G1 X60.714 Y124.088 E225.54842
G1 X60.537 Y123.355 E225.82818
G1 X59.685 Y118.8 E227.54739
G1 X59.585 Y118.049 E227.82847
G1 X59.207 Y113.435 E229.546
G1 X59.184 Y112.683 E229.82513
G1 X59.28 Y108.052 E231.5436
G1 X59.335 Y107.294 E231.82555
G1 X59.909 Y102.696 E233.54465
G1 X60.041 Y101.951 E233.82535
G1 X61.084 Y97.438 E235.54381
G1 X61.292 Y96.711 E235.82435
G1 X62.793 Y92.33 E237.54245
G1 X63.075 Y91.627 E237.82346
G1 X65.019 Y87.423 E239.54183
G1 X65.373 Y86.751 E239.82362
G1 X67.741 Y82.769 E241.54242
G1 X68.159 Y82.141 E241.8223
G1 X70.922 Y78.424 E243.54057
G1 X71.405 Y77.84 E243.82173
G1 X74.538 Y74.425 E245.5411
G0 F5472 X75.054 Y74.898
G1 F2280 X75.541 Y74.419 E245.79453
G1 X79.005 Y71.346 E247.51249
G1 X79.54 Y70.919 E247.76644
G1 X83.304 Y68.217 E249.48544
G1 X83.88 Y67.847 E249.73942
G1 X87.899 Y65.548 E251.45719
G1 X88.511 Y65.239 E251.71154
G1 X92.747 Y63.365 E253.43002
G1 X93.387 Y63.12 E253.68426
G1 X97.793 Y61.692 E255.4026
G1 X98.453 Y61.515 E255.65611
G1 X102.985 Y60.546 E257.37548
G1 X103.661 Y60.437 E257.62952
G1 X108.265 Y59.94 E259.34753
G1 X108.947 Y59.902 E259.60094
G1 X113.578 Y59.88 E261.31906
G1 X114.262 Y59.912 E261.5731
G1 X118.871 Y60.366 E263.29132
G1 X119.55 Y60.469 E263.54611
G1 X124.091 Y61.397 E265.26564
G1 X124.753 Y61.568 E265.5193
G1 X129.172 Y62.956 E267.23772
G1 X129.813 Y63.194 E267.4914
G1 X134.064 Y65.028 E269.20903
G1 X134.679 Y65.332 E269.46355
G1 X138.72 Y67.595 E271.18184
G1 X139.3 Y67.96 E271.43608
G1 X143.087 Y70.627 E273.15451
G1 X143.626 Y71.05 E273.4087
G1 X147.119 Y74.093 E275.1274
G1 X147.61 Y74.567 E275.38059
G1 X150.774 Y77.953 E277.09988
G1 X151.216 Y78.477 E277.35421
G1 X154.013 Y82.169 E279.07263
G1 X154.397 Y82.735 E279.32638
G1 X156.8 Y86.695 E281.04488
G1 X157.125 Y87.299 E281.29934
G1 X159.107 Y91.484 E283.0173
G1 X159.368 Y92.117 E283.27132
G1 X160.91 Y96.487 E284.99056
G1 X161.104 Y97.142 E285.244
G1 X162.189 Y101.644 E286.96206
G1 X162.315 Y102.319 E287.21681
G1 X162.93 Y106.909 E288.93492
G1 X162.986 Y107.591 E289.1888
G1 X163.126 Y112.221 E290.90731
G1 X163.112 Y112.902 E291.16002
G1 X162.778 Y117.522 E292.87851
G1 X162.693 Y118.203 E293.13312
G1 X161.884 Y122.764 E294.85166
G1 X161.729 Y123.434 E295.1068
G1 X160.453 Y127.888 E296.82571
G1 X160.231 Y128.534 E297.07913
G1 X158.506 Y132.831 E298.79698
G1 X158.219 Y133.453 E299.05112
G1 X156.06 Y137.552 E300.7699
G1 X155.711 Y138.139 E301.02326
G1 X153.142 Y141.996 E302.74256
G1 X152.733 Y142.546 E302.99685
G1 X149.784 Y146.115 E304.71448
G1 X149.321 Y146.621 E304.96893
G1 X146.019 Y149.868 E306.68703
G1 X145.506 Y150.322 E306.94118
G1 X141.886 Y153.213 E308.65993
G1 X141.331 Y153.611 E308.91331
G1 X137.435 Y156.115 E310.63152
G1 X136.84 Y156.456 E310.88594
G1 X132.703 Y158.547 E312.60568
G1 X132.251 Y158.755 E312.79028
G1 X129.922 Y159.721 E313.72571
G1 X129.557 Y159.86 E313.87061
G1 X127.367 Y160.621 E314.73076
G1 X126.878 Y160.77 E314.92041
G1 X122.599 Y161.897 E316.56206
G1 X121.958 Y162.032 E316.80509
G1 X117.382 Y162.766 E318.52449
G1 X116.699 Y162.84 E318.77936
G1 X112.075 Y163.098 E320.49753
G1 X111.398 Y163.101 E320.7487
G1 X106.772 Y162.887 E322.46679
G1 X106.085 Y162.819 E322.72291
G1 X101.503 Y162.126 E324.44216
G1 X100.832 Y161.989 E324.69624
G1 X96.35 Y160.83 E326.41376
G1 X95.696 Y160.625 E326.66803
G1 X91.352 Y159.009 E328.38756
G1 X90.725 Y158.738 E328.64097
G1 X86.572 Y156.686 E330.35955
G1 X85.974 Y156.351 E330.61385
G1 X82.055 Y153.883 E332.33209
G1 X81.496 Y153.49 E332.5856
G1 X77.85 Y150.632 E334.30432
G1 X77.333 Y150.181 E334.55885
G1 X74.002 Y146.964 E336.27689
G1 X73.535 Y146.464 E336.53072
G1 X70.553 Y142.922 E338.24849
G1 X70.139 Y142.376 E338.50271
G1 X67.535 Y138.543 E340.22187
G1 X67.181 Y137.959 E340.47523
G1 X64.985 Y133.881 E342.19359
G1 X64.692 Y133.262 E342.44766
G1 X62.927 Y128.979 E344.16629
G1 X62.698 Y128.33 E344.42162
G1 X61.385 Y123.889 E346.13973
G1 X61.225 Y123.227 E346.39241
G1 X60.373 Y118.672 E348.11162
G1 X60.282 Y117.992 E348.36615
G1 X59.904 Y113.378 E350.08368
G1 X59.883 Y112.697 E350.33645
G1 X59.979 Y108.066 E352.05492
G1 X60.029 Y107.38 E352.3101
G1 X60.603 Y102.782 E354.0292
G1 X60.723 Y102.109 E354.28282
G1 X61.766 Y97.596 E356.00128
G1 X61.954 Y96.938 E356.25516
G1 X63.455 Y92.557 E357.97326
G1 X63.71 Y91.921 E358.22748
G1 X65.654 Y87.717 E359.94584
G1 X65.974 Y87.109 E360.20075
G1 X68.342 Y83.127 E361.91955
G1 X68.721 Y82.559 E362.17288
G1 X71.484 Y78.842 E363.89115
G1 X71.921 Y78.313 E364.14571
G1 X75.054 Y74.898 E365.86508
G0 F5472 X75.57 Y75.372
G1 F2280 X76.005 Y74.943 E366.09175
G1 X79.469 Y71.87 E367.80971
G1 X79.948 Y71.487 E368.03724
G1 X83.712 Y68.785 E369.75624
G1 X84.228 Y68.454 E369.98367
G1 X88.247 Y66.155 E371.70144
G1 X88.794 Y65.879 E371.92874
G1 X93.03 Y64.005 E373.64722
G1 X93.603 Y63.786 E373.8748
G1 X98.009 Y62.358 E375.59314
G1 X98.599 Y62.2 E375.81974
G1 X103.131 Y61.231 E377.53912
G1 X103.736 Y61.133 E377.7665
G1 X108.34 Y60.636 E379.48451
G1 X108.951 Y60.602 E379.71154
G1 X113.582 Y60.58 E381.42966
G1 X114.193 Y60.609 E381.65659
G1 X118.802 Y61.063 E383.37481
G1 X119.41 Y61.154 E383.60289
G1 X123.951 Y62.082 E385.32242
G1 X124.543 Y62.235 E385.54927
G1 X128.962 Y63.623 E387.26769
G1 X129.536 Y63.837 E387.49496
G1 X133.787 Y65.671 E389.2126
G1 X134.337 Y65.943 E389.44024
G1 X138.378 Y68.206 E391.15852
G1 X138.897 Y68.532 E391.38591
G1 X142.684 Y71.199 E393.10433
G1 X143.166 Y71.578 E393.33181
G1 X146.659 Y74.621 E395.05051
G1 X147.098 Y75.045 E395.27694
G1 X150.262 Y78.431 E396.99623
G1 X150.658 Y78.9 E397.22396
G1 X153.455 Y82.592 E398.94237
G1 X153.799 Y83.098 E399.16937
G1 X156.202 Y87.058 E400.88787
G1 X156.492 Y87.598 E401.11527
G1 X158.474 Y91.783 E402.83323
G1 X158.708 Y92.35 E403.06079
G1 X160.25 Y96.72 E404.78004
G1 X160.423 Y97.306 E405.00672
G1 X161.508 Y101.808 E406.72478
G1 X161.621 Y102.412 E406.95275
G1 X162.236 Y107.002 E408.67086
G1 X162.286 Y107.612 E408.89793
G1 X162.426 Y112.242 E410.61645
G1 X162.414 Y112.851 E410.84243
G1 X162.08 Y117.471 E412.56092
G1 X162.004 Y118.081 E412.78898
G1 X161.195 Y122.642 E414.50753
G1 X161.056 Y123.242 E414.73602
G1 X159.78 Y127.696 E416.45493
G1 X159.582 Y128.274 E416.6816
G1 X157.857 Y132.571 E418.39945
G1 X157.599 Y133.127 E418.62685
G1 X155.44 Y137.226 E420.34563
G1 X155.128 Y137.751 E420.5722
G1 X152.559 Y141.608 E422.29151
G1 X152.194 Y142.1 E422.51878
G1 X149.245 Y145.669 E424.23641
G1 X148.83 Y146.121 E424.46406
G1 X145.528 Y149.368 E426.18217
G1 X145.069 Y149.775 E426.40976
G1 X141.449 Y152.666 E428.12851
G1 X140.953 Y153.022 E428.35501
G1 X137.057 Y155.526 E430.07322
G1 X136.524 Y155.831 E430.30105
G1 X132.387 Y157.922 E432.02079
G1 X131.983 Y158.108 E432.1858
G1 X129.654 Y159.074 E433.12123
G1 X129.327 Y159.198 E433.25098
G1 X127.137 Y159.959 E434.11112
G1 X126.699 Y160.093 E434.28106
G1 X122.42 Y161.22 E435.9227
G1 X121.847 Y161.341 E436.13998
G1 X117.271 Y162.075 E437.85937
G1 X116.66 Y162.141 E438.08737
G1 X112.036 Y162.399 E439.80554
G1 X111.43 Y162.402 E440.03037
G1 X106.804 Y162.188 E441.74845
G1 X106.189 Y162.127 E441.97774
G1 X101.607 Y161.434 E443.69699
G1 X101.007 Y161.312 E443.92415
G1 X96.525 Y160.153 E445.64167
G1 X95.94 Y159.969 E445.86918
G1 X91.596 Y158.353 E447.58871
G1 X91.035 Y158.11 E447.81553
G1 X86.882 Y156.058 E449.53411
G1 X86.347 Y155.759 E449.76149
G1 X82.428 Y153.291 E451.47973
G1 X81.928 Y152.939 E451.70658
G1 X78.282 Y150.081 E453.4253
G1 X77.82 Y149.678 E453.65275
G1 X74.489 Y146.461 E455.37079
G1 X74.07 Y146.013 E455.59836
G1 X71.088 Y142.471 E457.31614
G1 X70.718 Y141.983 E457.54334
G1 X68.114 Y138.15 E459.26251
G1 X67.797 Y137.627 E459.4894
G1 X65.601 Y133.549 E461.20775
G1 X65.339 Y132.995 E461.43511
G1 X63.574 Y128.712 E463.15374
G1 X63.369 Y128.132 E463.38197
G1 X62.056 Y123.691 E465.10008
G1 X61.913 Y123.098 E465.32639
G1 X61.061 Y118.543 E467.0456
G1 X60.98 Y117.935 E467.27316
G1 X60.602 Y113.321 E468.99069
G1 X60.583 Y112.712 E469.21674
G1 X60.679 Y108.081 E470.93521
G1 X60.724 Y107.467 E471.16361
G1 X61.298 Y102.869 E472.88271
G1 X61.405 Y102.266 E473.10992
G1 X62.448 Y97.753 E474.82838
G1 X62.616 Y97.164 E475.05561
G1 X64.117 Y92.783 E476.77371
G1 X64.345 Y92.215 E477.00078
G1 X66.289 Y88.011 E478.71915
G1 X66.576 Y87.467 E478.94734
G1 X68.944 Y83.485 E480.66614
