;FLAVOR:UltiGCode
;TIME:1351
;MATERIAL:3741
;MATERIAL2:0
;NOZZLE_DIAMETER:0.8
;MINX:97.418
;MINY:78.966
;MINZ:0.53
;MAXX:125.584
;MAXY:144.039
;MAXZ:43.93
;Generated with Cura_SteamEngine 4.3.0
M82 ;absolute extrusion mode

G92 E0
G92 E0
G10
;LAYER_COUNT:218
;LAYER:0
M107
G0 F5400 X99.183 Y82.408 Z0.53
;TYPE:SKIRT
G11
G1 F1800 X99.715 Y81.808 E0.2975
G1 X100.305 Y81.263 E0.59549
G1 X100.945 Y80.78 E0.89296
G1 X101.631 Y80.363 E1.19079
G1 X102.354 Y80.017 E1.48816
G1 X103.109 Y79.744 E1.78601
G1 X103.886 Y79.547 E2.0834
G1 X104.612 Y79.436 E2.35588
G1 X107.603 Y79.117 E3.47183
G1 X108.164 Y79.077 E3.68049
G1 X111.188 Y78.967 E4.80314
G1 X111.747 Y78.966 E5.01053
G1 X114.77 Y79.066 E6.13267
G1 X115.344 Y79.106 E6.34614
G1 X118.355 Y79.422 E7.46936
G1 X119.148 Y79.545 E7.76708
G1 X119.924 Y79.747 E8.06457
G1 X120.677 Y80.025 E8.36236
G1 X121.398 Y80.376 E8.65987
G1 X122.081 Y80.798 E8.95773
G1 X122.718 Y81.285 E9.25521
G1 X123.303 Y81.834 E9.55285
G1 X123.832 Y82.438 E9.85073
G1 X124.297 Y83.091 E10.14814
G1 X124.695 Y83.788 E10.44591
G1 X125.022 Y84.52 E10.74335
G1 X125.274 Y85.282 E11.04111
G1 X125.449 Y86.065 E11.33877
G1 X125.545 Y86.861 E11.63623
G1 X125.565 Y87.387 E11.83151
G1 X125.584 Y91.151 E13.22797
G1 X125.584 Y130.009 E27.64429
G1 X125.557 Y130.667 E27.88862
G1 X125.483 Y131.569 E28.22438
G1 X125.378 Y132.365 E28.52226
G1 X125.292 Y132.773 E28.67695
G1 X125.064 Y133.732 E29.04266
G1 X124.839 Y134.502 E29.34027
G1 X124.652 Y134.991 E29.5345
G1 X124.268 Y135.904 E29.90197
G1 X123.921 Y136.627 E30.19949
G1 X123.652 Y137.084 E30.39623
G1 X123.121 Y137.924 E30.76492
G1 X122.66 Y138.58 E31.06238
G1 X122.322 Y138.984 E31.2578
G1 X121.665 Y139.72 E31.62382
G1 X121.102 Y140.291 E31.92132
G1 X120.689 Y140.645 E32.12313
G1 X119.914 Y141.265 E32.49134
G1 X119.263 Y141.734 E32.78901
G1 X118.814 Y142.005 E32.98358
G1 X117.952 Y142.487 E33.34998
G1 X117.233 Y142.843 E33.64764
G1 X116.756 Y143.033 E33.83813
G1 X115.825 Y143.369 E34.20533
G1 X115.057 Y143.603 E34.50319
G1 X114.533 Y143.717 E34.70215
G1 X113.555 Y143.895 E35.07094
G1 X112.76 Y143.999 E35.3684
G1 X112.237 Y144.024 E35.56266
G1 X111.252 Y144.039 E35.92813
G1 X110.45 Y144.011 E36.22586
G1 X109.931 Y143.95 E36.41973
G1 X108.948 Y143.802 E36.78853
G1 X108.161 Y143.643 E37.08641
G1 X107.632 Y143.489 E37.29082
G1 X106.695 Y143.181 E37.65674
G1 X105.947 Y142.893 E37.95411
G1 X105.489 Y142.673 E38.14261
G1 X104.608 Y142.214 E38.51117
G1 X103.916 Y141.809 E38.80864
G1 X103.475 Y141.497 E39.00905
G1 X102.689 Y140.903 E39.37456
G1 X102.073 Y140.388 E39.67245
G1 X101.702 Y140.021 E39.86605
G1 X101.018 Y139.3 E40.23477
G1 X100.495 Y138.692 E40.5323
G1 X100.181 Y138.257 E40.73134
G1 X99.628 Y137.436 E41.09859
G1 X99.214 Y136.749 E41.39616
G1 X98.981 Y136.28 E41.59045
G1 X98.57 Y135.379 E41.95786
G1 X98.274 Y134.633 E42.25562
G1 X98.12 Y134.128 E42.45149
G1 X97.864 Y133.176 E42.81723
G1 X97.695 Y132.392 E43.11477
G1 X97.626 Y131.865 E43.31196
G1 X97.53 Y130.878 E43.67986
G1 X97.492 Y130.101 E43.96848
G1 X97.484 Y90.556 E58.63967
G1 X97.418 Y87.622 E59.72846
G1 X97.44 Y86.82 E60.02611
G1 X97.542 Y86.024 E60.32385
G1 X97.722 Y85.243 E60.62119
G1 X97.979 Y84.483 E60.91884
G1 X98.311 Y83.752 E61.2167
G1 X98.714 Y83.058 E61.51443
G1 X99.183 Y82.408 E61.8118
G0 F5400 X99.882 Y82.662
G1 F1800 X100.41 Y82.106 E62.09627
G1 X100.993 Y81.609 E62.38049
G1 X101.625 Y81.175 E62.66493
G1 X102.298 Y80.809 E62.94914
G1 X103.006 Y80.515 E63.23356
G1 X103.741 Y80.296 E63.51809
G1 X104.687 Y80.132 E63.87429
G1 X107.678 Y79.813 E64.99025
G1 X108.19 Y79.777 E65.18067
G1 X111.214 Y79.667 E66.30331
G1 X111.724 Y79.666 E66.49252
G1 X114.747 Y79.766 E67.61467
G1 X115.271 Y79.802 E67.80953
G1 X118.282 Y80.118 E68.93275
G1 X119.039 Y80.238 E69.2171
G1 X119.78 Y80.436 E69.50166
G1 X120.496 Y80.71 E69.78608
G1 X121.179 Y81.057 E70.0703
G1 X121.823 Y81.473 E70.35474
G1 X122.42 Y81.954 E70.63917
G1 X122.963 Y82.495 E70.92354
G1 X123.447 Y83.089 E71.20781
G1 X123.867 Y83.73 E71.49212
G1 X124.218 Y84.412 E71.77669
G1 X124.495 Y85.126 E72.06082
G1 X124.697 Y85.866 E72.3454
G1 X124.821 Y86.623 E72.62999
G1 X124.865 Y87.391 E72.91539
G1 X124.884 Y91.155 E74.31185
G1 X124.884 Y130.009 E88.72668
G1 X124.859 Y130.61 E88.94985
G1 X124.785 Y131.512 E89.28561
G1 X124.611 Y132.611 E89.69842
G1 X124.383 Y133.57 E90.06413
G1 X124.167 Y134.306 E90.3487
G1 X124.007 Y134.72 E90.51337
G1 X123.623 Y135.633 E90.88083
G1 X123.29 Y136.323 E91.16507
G1 X123.061 Y136.71 E91.3319
G1 X122.53 Y137.55 E91.70059
G1 X122.087 Y138.176 E91.9851
G1 X121.8 Y138.518 E92.15074
G1 X121.143 Y139.254 E92.51677
G1 X120.604 Y139.798 E92.80088
G1 X120.252 Y140.098 E92.97247
G1 X119.477 Y140.718 E93.34068
G1 X118.854 Y141.165 E93.62515
G1 X118.472 Y141.394 E93.79039
G1 X117.61 Y141.876 E94.15679
G1 X116.922 Y142.215 E94.44134
G1 X116.518 Y142.375 E94.60255
G1 X115.587 Y142.711 E94.96976
G1 X114.853 Y142.933 E95.25425
G1 X114.408 Y143.028 E95.42307
G1 X113.43 Y143.206 E95.79187
G1 X112.67 Y143.304 E96.07616
G1 X112.226 Y143.324 E96.24105
G1 X111.241 Y143.339 E96.60653
G1 X110.475 Y143.311 E96.89091
G1 X110.035 Y143.258 E97.05533
G1 X109.052 Y143.11 E97.42413
G1 X108.301 Y142.957 E97.70847
G1 X107.851 Y142.824 E97.88256
G1 X106.914 Y142.516 E98.24849
G1 X106.199 Y142.239 E98.53297
G1 X105.813 Y142.052 E98.69209
G1 X104.932 Y141.593 E99.06064
G1 X104.272 Y141.204 E99.34487
G1 X103.897 Y140.939 E99.51523
G1 X103.111 Y140.345 E99.88074
G1 X102.524 Y139.851 E100.16537
G1 X102.21 Y139.54 E100.32933
G1 X101.526 Y138.819 E100.69804
G1 X101.028 Y138.236 E100.9825
G1 X100.762 Y137.866 E101.15157
G1 X100.209 Y137.045 E101.51881
G1 X99.814 Y136.388 E101.80322
G1 X99.618 Y135.989 E101.96814
G1 X99.207 Y135.088 E102.33555
G1 X98.926 Y134.375 E102.61987
G1 X98.796 Y133.947 E102.78583
G1 X98.54 Y132.995 E103.15156
G1 X98.38 Y132.245 E103.43608
G1 X98.323 Y131.798 E103.60326
G1 X98.227 Y130.811 E103.97116
G1 X98.192 Y130.1 E104.23526
G1 X98.184 Y90.54 E118.91202
G1 X98.118 Y87.606 E120.00081
G1 X98.141 Y86.84 E120.28512
G1 X98.243 Y86.08 E120.56961
G1 X98.424 Y85.336 E120.85369
G1 X98.682 Y84.614 E121.13814
G1 X99.013 Y83.922 E121.42273
G1 X99.415 Y83.269 E121.70722
G1 X99.882 Y82.662 E121.99135
G0 F5400 X100.115 Y83.493
G1 F1800 X100.579 Y82.931 E122.26173
G1 X101.102 Y82.423 E122.53223
G1 X101.678 Y81.975 E122.80295
G1 X102.299 Y81.593 E123.07345
G1 X102.958 Y81.282 E123.34379
G1 X103.648 Y81.044 E123.61458
G1 X104.359 Y80.884 E123.88496
G1 X104.761 Y80.829 E124.03549
G1 X107.752 Y80.51 E125.15145
G1 X108.215 Y80.476 E125.32368
G1 X111.239 Y80.366 E126.44633
G1 X111.701 Y80.366 E126.61773
G1 X114.724 Y80.466 E127.73988
G1 X115.198 Y80.498 E127.91613
G1 X118.209 Y80.814 E129.03935
G1 X118.929 Y80.93 E129.30991
G1 X119.632 Y81.124 E129.58047
G1 X120.309 Y81.394 E129.85088
G1 X120.953 Y81.736 E130.1214
G1 X121.556 Y82.146 E130.39193
G1 X122.11 Y82.62 E130.66243
G1 X122.608 Y83.152 E130.93278
G1 X123.046 Y83.736 E131.20361
G1 X123.417 Y84.363 E131.4739
G1 X123.717 Y85.028 E131.74456
G1 X123.942 Y85.721 E132.01487
G1 X124.09 Y86.435 E132.2854
G1 X124.165 Y87.394 E132.64227
G1 X124.184 Y91.158 E134.03873
G1 X124.184 Y130.009 E148.45246
G1 X124.162 Y130.553 E148.65444
G1 X124.088 Y131.455 E148.99021
G1 X123.93 Y132.449 E149.36361
G1 X123.702 Y133.408 E149.72932
G1 X123.494 Y134.107 E149.99989
G1 X123.362 Y134.448 E150.13555
G1 X122.978 Y135.361 E150.50301
G1 X122.659 Y136.017 E150.77364
G1 X122.469 Y136.336 E150.91139
G1 X121.938 Y137.176 E151.28007
G1 X121.515 Y137.77 E151.55061
G1 X121.278 Y138.051 E151.68699
G1 X120.621 Y138.787 E152.05302
G1 X120.106 Y139.304 E152.32375
G1 X119.814 Y139.552 E152.46588
G1 X119.039 Y140.172 E152.83409
G1 X118.446 Y140.595 E153.10433
G1 X118.131 Y140.783 E153.24043
G1 X117.269 Y141.265 E153.60683
G1 X116.28 Y141.716 E154.0101
G1 X115.349 Y142.052 E154.3773
G1 X114.651 Y142.262 E154.64773
G1 X114.283 Y142.34 E154.78729
G1 X113.305 Y142.518 E155.15609
G1 X112.581 Y142.609 E155.42681
G1 X112.215 Y142.624 E155.56271
G1 X111.23 Y142.639 E155.92818
G1 X110.502 Y142.61 E156.19848
G1 X110.139 Y142.566 E156.33414
G1 X109.156 Y142.418 E156.70295
G1 X108.442 Y142.27 E156.97347
G1 X108.069 Y142.159 E157.11785
G1 X107.132 Y141.851 E157.48378
G1 X106.136 Y141.432 E157.88466
G1 X105.255 Y140.973 E158.25321
G1 X104.628 Y140.601 E158.52369
G1 X104.319 Y140.38 E158.66463
G1 X103.533 Y139.786 E159.03014
G1 X102.976 Y139.316 E159.30053
G1 X102.718 Y139.058 E159.43589
G1 X102.034 Y138.337 E159.8046
G1 X101.562 Y137.781 E160.07518
G1 X101.342 Y137.475 E160.21501
G1 X100.789 Y136.654 E160.58225
G1 X100.416 Y136.028 E160.8526
G1 X100.255 Y135.699 E160.98849
G1 X99.844 Y134.798 E161.35589
G1 X99.578 Y134.119 E161.62644
G1 X99.472 Y133.765 E161.76354
G1 X99.216 Y132.813 E162.12928
G1 X99.066 Y132.099 E162.39995
G1 X99.019 Y131.73 E162.53796
G1 X98.923 Y130.743 E162.90586
G1 X98.892 Y130.1 E163.14469
G1 X98.884 Y90.525 E177.82702
G1 X98.818 Y87.591 E178.91581
G1 X98.841 Y86.862 E179.1864
G1 X98.944 Y86.14 E179.45698
G1 X99.126 Y85.434 E179.72747
G1 X99.384 Y84.752 E179.99799
G1 X99.715 Y84.102 E180.2686
G1 X100.115 Y83.493 E180.53892
G0 F5400 X100.815 Y83.731
G1 F1800 X101.275 Y83.217 E180.79483
G1 X101.792 Y82.761 E181.05058
G1 X102.358 Y82.367 E181.30644
G1 X102.966 Y82.042 E181.56221
G1 X103.608 Y81.789 E181.81822
G1 X104.274 Y81.612 E182.07388
G1 X104.835 Y81.525 E182.2845
G1 X107.826 Y81.206 E183.40045
G1 X108.241 Y81.176 E183.55482
G1 X111.265 Y81.066 E184.67747
G1 X111.678 Y81.065 E184.83069
G1 X114.701 Y81.165 E185.95284
G1 X115.125 Y81.194 E186.11051
G1 X118.136 Y81.51 E187.23372
G1 X118.817 Y81.622 E187.48977
G1 X119.48 Y81.812 E187.74564
G1 X120.116 Y82.077 E188.00126
G1 X120.718 Y82.414 E188.25722
G1 X121.277 Y82.818 E188.5131
G1 X121.785 Y83.284 E188.76885
G1 X122.236 Y83.806 E189.02479
G1 X122.623 Y84.377 E189.2807
G1 X122.942 Y84.988 E189.53641
G1 X123.188 Y85.633 E189.79252
G1 X123.357 Y86.301 E190.04816
G1 X123.448 Y86.985 E190.30416
G1 X123.465 Y87.398 E190.45751
G1 X123.484 Y91.162 E191.85397
G1 X123.484 Y130.009 E206.26621
G1 X123.464 Y130.496 E206.44704
G1 X123.39 Y131.398 E206.78281
G1 X123.249 Y132.287 E207.11675
G1 X123.021 Y133.246 E207.48245
G1 X122.717 Y134.177 E207.8458
G1 X122.333 Y135.09 E208.21327
G1 X121.877 Y135.962 E208.57834
G1 X121.346 Y136.802 E208.94703
G1 X120.756 Y137.585 E209.31076
G1 X120.099 Y138.321 E209.67678
G1 X119.377 Y139.005 E210.04576
G1 X118.602 Y139.625 E210.41397
G1 X117.789 Y140.172 E210.77751
G1 X116.927 Y140.654 E211.14391
G1 X116.043 Y141.058 E211.5045
G1 X115.112 Y141.394 E211.87171
G1 X114.157 Y141.651 E212.23862
G1 X113.179 Y141.829 E212.60742
G1 X112.205 Y141.924 E212.97049
G1 X111.22 Y141.939 E213.33596
G1 X110.243 Y141.874 E213.69923
G1 X109.26 Y141.726 E214.06803
G1 X108.288 Y141.494 E214.43878
G1 X107.351 Y141.186 E214.8047
G1 X106.46 Y140.811 E215.16335
G1 X105.579 Y140.352 E215.5319
G1 X104.741 Y139.822 E215.89976
G1 X103.955 Y139.228 E216.26527
G1 X103.225 Y138.576 E216.6284
G1 X102.541 Y137.855 E216.99711
G1 X101.923 Y137.084 E217.3637
G1 X101.37 Y136.263 E217.73094
G1 X100.892 Y135.408 E218.09435
G1 X100.481 Y134.507 E218.46176
G1 X100.148 Y133.583 E218.82614
G1 X99.892 Y132.631 E219.19188
G1 X99.716 Y131.662 E219.55726
G1 X99.62 Y130.675 E219.92517
G1 X99.592 Y130.1 E220.13875
G1 X99.584 Y90.509 E234.82701
G1 X99.518 Y87.575 E235.9158
G1 X99.542 Y86.886 E236.17157
G1 X99.646 Y86.204 E236.42752
G1 X99.828 Y85.539 E236.68331
G1 X100.086 Y84.899 E236.93931
G1 X100.416 Y84.294 E237.19499
G1 X100.815 Y83.731 E237.451
G0 F5400 X101.513 Y83.986
G1 F1800 X101.969 Y83.526 E237.6913
G1 X102.477 Y83.125 E237.93141
G1 X103.032 Y82.789 E238.17211
G1 X103.623 Y82.525 E238.41225
G1 X104.243 Y82.336 E238.65272
G1 X104.909 Y82.221 E238.90346
G1 X107.9 Y81.902 E240.01942
G1 X108.266 Y81.875 E240.15557
G1 X111.29 Y81.765 E241.27822
G1 X111.655 Y81.765 E241.41363
G1 X114.678 Y81.865 E242.53578
G1 X115.052 Y81.891 E242.67487
G1 X118.063 Y82.207 E243.79808
G1 X118.702 Y82.314 E244.03845
G1 X119.323 Y82.499 E244.27885
G1 X119.916 Y82.759 E244.51907
G1 X120.473 Y83.09 E244.75945
G1 X120.984 Y83.488 E244.99975
G1 X121.443 Y83.945 E245.24005
G1 X121.842 Y84.455 E245.48029
G1 X122.175 Y85.01 E245.72041
G1 X122.438 Y85.603 E245.96108
G1 X122.625 Y86.223 E246.20134
G1 X122.734 Y86.861 E246.44146
G1 X122.765 Y87.401 E246.64213
G1 X122.784 Y91.165 E248.0386
G1 X122.784 Y130.009 E262.44972
G1 X122.766 Y130.438 E262.60902
G1 X122.692 Y131.34 E262.94479
G1 X122.568 Y132.125 E263.23963
G1 X122.34 Y133.084 E263.60534
G1 X122.071 Y133.905 E263.92586
G1 X121.687 Y134.818 E264.29332
G1 X121.286 Y135.588 E264.61541
G1 X120.755 Y136.428 E264.9841
G1 X120.234 Y137.119 E265.30516
G1 X119.577 Y137.855 E265.67118
G1 X118.94 Y138.459 E265.99686
G1 X118.165 Y139.079 E266.36507
G1 X117.447 Y139.561 E266.6859
G1 X116.585 Y140.043 E267.05231
G1 X115.805 Y140.399 E267.3704
G1 X114.874 Y140.735 E267.73761
G1 X114.032 Y140.962 E268.06114
G1 X113.054 Y141.14 E268.42994
G1 X112.194 Y141.224 E268.75052
G1 X111.209 Y141.239 E269.116
G1 X110.347 Y141.181 E269.43652
G1 X109.364 Y141.033 E269.80533
G1 X108.507 Y140.829 E270.13216
G1 X107.57 Y140.521 E270.49808
G1 X106.783 Y140.19 E270.81483
G1 X105.902 Y139.731 E271.18339
G1 X105.163 Y139.263 E271.50791
G1 X104.377 Y138.669 E271.87342
G1 X103.733 Y138.094 E272.19372
G1 X103.049 Y137.373 E272.56243
G1 X102.504 Y136.693 E272.88574
G1 X101.951 Y135.872 E273.25298
G1 X101.528 Y135.118 E273.57373
G1 X101.117 Y134.217 E273.94114
G1 X100.824 Y133.401 E274.2628
G1 X100.568 Y132.449 E274.62854
G1 X100.413 Y131.594 E274.95091
G1 X100.317 Y130.607 E275.31882
G1 X100.292 Y130.1 E275.50714
G1 X100.284 Y90.537 E290.18502
G1 X100.217 Y87.559 E291.29013
G1 X100.243 Y86.912 E291.53036
G1 X100.348 Y86.273 E291.77061
G1 X100.531 Y85.651 E292.01115
G1 X100.788 Y85.057 E292.25127
G1 X101.118 Y84.499 E292.49178
G1 X101.513 Y83.986 E292.73199
G0 F5400 X101.818 Y84.722
G1 F1800 X102.21 Y84.263 E292.95592
G1 X102.659 Y83.86 E293.17976
G1 X103.157 Y83.521 E293.40326
G1 X103.695 Y83.25 E293.62675
G1 X104.265 Y83.052 E293.85062
G1 X104.983 Y82.917 E294.12166
G1 X107.974 Y82.598 E295.23762
G1 X108.292 Y82.575 E295.35591
G1 X111.316 Y82.465 E296.47855
G1 X111.631 Y82.464 E296.59542
G1 X114.654 Y82.564 E297.71756
G1 X114.979 Y82.587 E297.83844
G1 X117.99 Y82.903 E298.96166
G1 X118.584 Y83.005 E299.18526
G1 X119.16 Y83.186 E299.40925
G1 X119.706 Y83.44 E299.63267
G1 X120.214 Y83.765 E299.8564
G1 X120.675 Y84.154 E300.08019
G1 X121.08 Y84.601 E300.30397
G1 X121.423 Y85.097 E300.5277
G1 X121.696 Y85.634 E300.75119
G1 X121.897 Y86.203 E300.97508
G1 X122.02 Y86.793 E301.19867
G1 X122.065 Y87.405 E301.42634
G1 X122.084 Y91.169 E302.8228
G1 X122.084 Y130.009 E317.23244
G1 X122.069 Y130.381 E317.37056
G1 X121.995 Y131.283 E317.70633
G1 X121.887 Y131.963 E317.96177
G1 X121.659 Y132.922 E318.32748
G1 X121.426 Y133.634 E318.60542
G1 X121.042 Y134.547 E318.97288
G1 X120.694 Y135.214 E319.25199
G1 X120.163 Y136.054 E319.62068
G1 X119.711 Y136.653 E319.89908
G1 X119.054 Y137.389 E320.2651
G1 X118.502 Y137.912 E320.54721
G1 X117.727 Y138.532 E320.91542
G1 X117.106 Y138.95 E321.19315
G1 X116.244 Y139.432 E321.55955
G1 X115.568 Y139.741 E321.8353
G1 X114.637 Y140.077 E322.20251
G1 X113.907 Y140.273 E322.48293
G1 X112.929 Y140.451 E322.85173
G1 X112.183 Y140.524 E323.12982
G1 X111.198 Y140.539 E323.4953
G1 X110.452 Y140.489 E323.77268
G1 X109.469 Y140.341 E324.14149
G1 X108.725 Y140.164 E324.42521
G1 X107.788 Y139.856 E324.79114
G1 X107.107 Y139.569 E325.06531
G1 X106.226 Y139.11 E325.43386
