;FLAVOR:UltiGCode
;TIME:6031
;MATERIAL:11957
;MATERIAL2:0
;NOZZLE_DIAMETER:0.6
;MINX:63.267
;MINY:63.275
;MINZ:0.4
;MAXX:159.722
;MAXY:159.731
;MAXZ:4
;Generated with Cura_SteamEngine 4.3.0
M82 ;absolute extrusion mode

G92 E0
G92 E0
G10
;LAYER_COUNT:25
;LAYER:0
M107
G0 F3927.3 X76.392 Y78.464 Z0.4
;TYPE:SKIRT
G11
G1 F1800 X76.41 Y78.447 E0.00525
G1 X78.82 Y76.074 E0.72227
G1 X78.848 Y76.046 E0.73067
G1 X79.368 Y75.546 E0.8836
G1 X79.545 Y75.389 E0.93376
G1 X79.941 Y75.06 E1.04291
G1 X79.988 Y75.021 E1.05585
G1 X82.641 Y72.899 E1.77607
G1 X82.679 Y72.869 E1.78633
G1 X83.258 Y72.42 E1.94167
G1 X83.414 Y72.306 E1.98263
G1 X83.614 Y72.169 E2.03402
G1 X83.691 Y72.118 E2.0536
G1 X86.795 Y70.119 E2.8363
G1 X86.831 Y70.096 E2.84536
G1 X87.403 Y69.738 E2.98842
G1 X87.562 Y69.645 E3.02747
G1 X87.773 Y69.529 E3.07851
G1 X87.853 Y69.486 E3.09777
G1 X88.032 Y69.394 E3.14044
G1 X88.051 Y69.385 E3.14489
G1 X91.151 Y67.816 E3.88147
G1 X91.193 Y67.795 E3.89143
G1 X91.851 Y67.474 E4.04664
G1 X92.015 Y67.399 E4.08487
G1 X92.231 Y67.308 E4.13456
G1 X92.303 Y67.279 E4.15102
G1 X92.557 Y67.179 E4.20889
G1 X92.584 Y67.168 E4.21507
G1 X95.79 Y65.939 E4.94297
G1 X95.834 Y65.923 E4.95289
G1 X96.458 Y65.694 E5.09381
G1 X96.667 Y65.625 E5.14047
G1 X97.163 Y65.48 E5.25002
G1 X97.231 Y65.461 E5.26499
G1 X100.527 Y64.575 E5.98855
G1 X100.573 Y64.563 E5.99863
G1 X101.252 Y64.391 E6.14712
G1 X101.399 Y64.357 E6.17911
G1 X101.643 Y64.307 E6.23191
G1 X101.763 Y64.285 E6.25777
G1 X102.07 Y64.234 E6.32375
G1 X102.086 Y64.232 E6.32717
G1 X105.406 Y63.697 E7.04009
G1 X105.455 Y63.689 E7.05061
G1 X106.191 Y63.582 E7.20829
G1 X106.279 Y63.57 E7.22712
G1 X106.508 Y63.543 E7.276
G1 X106.61 Y63.533 E7.29773
G1 X108.177 Y63.398 E7.63116
G1 X108.232 Y63.394 E7.64285
G1 X108.912 Y63.347 E7.78736
G1 X109.003 Y63.342 E7.80668
G1 X109.832 Y63.308 E7.98257
G1 X109.879 Y63.306 E7.99255
G1 X110.669 Y63.285 E8.16009
G1 X110.718 Y63.284 E8.17048
G1 X111.486 Y63.275 E8.3333
G1 X111.637 Y63.277 E8.36532
G1 X112.155 Y63.295 E8.4752
G1 X112.209 Y63.297 E8.48666
G1 X115.36 Y63.458 E9.15554
G1 X115.408 Y63.461 E9.16574
G1 X115.908 Y63.494 E9.27197
G1 X116.111 Y63.514 E9.31521
G1 X117.382 Y63.678 E9.5869
G1 X117.45 Y63.687 E9.60144
G1 X120.235 Y64.106 E10.1985
G1 X120.277 Y64.113 E10.20753
G1 X121.003 Y64.232 E10.3635
G1 X121.231 Y64.278 E10.41281
G1 X121.714 Y64.393 E10.51806
G1 X121.774 Y64.408 E10.53118
G1 X125.081 Y65.262 E11.25526
G1 X125.121 Y65.272 E11.264
G1 X125.813 Y65.46 E11.41602
G1 X125.989 Y65.514 E11.45505
G1 X126.25 Y65.601 E11.51338
G1 X126.354 Y65.637 E11.53671
G1 X129.81 Y66.919 E12.31816
G1 X129.851 Y66.934 E12.32742
G1 X130.454 Y67.167 E12.46447
G1 X130.621 Y67.238 E12.50294
G1 X130.86 Y67.346 E12.55854
G1 X130.93 Y67.378 E12.57486
G1 X131.136 Y67.477 E12.62331
G1 X131.166 Y67.492 E12.63042
G1 X134.278 Y69.027 E13.36606
G1 X134.319 Y69.047 E13.37573
G1 X134.938 Y69.363 E13.52307
G1 X135.097 Y69.45 E13.56149
G1 X135.284 Y69.559 E13.60738
G1 X135.359 Y69.604 E13.62592
G1 X135.59 Y69.747 E13.68352
G1 X135.609 Y69.759 E13.68828
G1 X138.563 Y71.617 E14.4281
G1 X138.602 Y71.642 E14.43792
G1 X139.117 Y71.976 E14.56806
G1 X139.287 Y72.094 E14.61193
G1 X139.691 Y72.394 E14.71861
G1 X139.758 Y72.445 E14.73646
G1 X142.493 Y74.588 E15.47307
G1 X142.529 Y74.617 E15.48287
G1 X143.057 Y75.043 E15.62669
G1 X143.184 Y75.151 E15.66204
G1 X143.393 Y75.338 E15.72149
G1 X143.482 Y75.42 E15.74715
G1 X146.145 Y77.987 E16.53129
G1 X146.178 Y78.019 E16.54104
G1 X146.64 Y78.477 E16.67895
G1 X146.768 Y78.613 E16.71854
G1 X146.947 Y78.812 E16.77529
G1 X147.015 Y78.889 E16.79707
G1 X149.346 Y81.651 E17.56327
G1 X149.375 Y81.686 E17.57291
G1 X149.865 Y82.283 E17.73664
G1 X149.976 Y82.426 E17.77502
G1 X150.115 Y82.616 E17.82493
G1 X150.179 Y82.707 E17.84851
G1 X152.278 Y85.791 E18.63939
G1 X152.304 Y85.829 E18.64915
G1 X152.648 Y86.35 E18.7815
G1 X152.734 Y86.488 E18.81598
G1 X152.874 Y86.725 E18.87433
G1 X152.936 Y86.835 E18.9011
G1 X154.699 Y90.102 E19.68812
G1 X154.72 Y90.142 E19.69769
G1 X155.016 Y90.709 E19.83329
G1 X155.095 Y90.87 E19.87131
G1 X155.224 Y91.154 E19.93744
G1 X155.269 Y91.257 E19.96127
G1 X156.652 Y94.604 E20.72902
G1 X156.668 Y94.645 E20.73835
G1 X156.937 Y95.322 E20.89279
G1 X157.004 Y95.506 E20.9343
G1 X157.088 Y95.761 E20.99122
G1 X157.117 Y95.853 E21.01167
G1 X158.159 Y99.36 E21.78728
G1 X158.173 Y99.408 E21.79788
G1 X158.366 Y100.096 E21.94937
G1 X158.408 Y100.264 E21.98608
G1 X158.46 Y100.496 E22.03648
G1 X158.477 Y100.578 E22.05424
G1 X158.519 Y100.791 E22.10026
G1 X158.525 Y100.821 E22.10675
G1 X159.161 Y104.212 E22.83817
G1 X159.169 Y104.255 E22.84745
G1 X159.292 Y104.963 E22.99979
G1 X159.319 Y105.153 E23.04048
G1 X159.349 Y105.417 E23.0968
G1 X159.359 Y105.516 E23.1179
G1 X159.661 Y109.159 E23.89286
G1 X159.664 Y109.204 E23.90242
G1 X159.713 Y109.913 E24.05309
G1 X159.721 Y110.131 E24.09934
G1 X159.722 Y110.597 E24.19813
G1 X159.721 Y110.67 E24.21361
G1 X159.651 Y114.15 E24.95152
G1 X159.65 Y114.197 E24.96148
G1 X159.627 Y114.861 E25.10234
G1 X159.616 Y115.043 E25.14099
G1 X159.59 Y115.33 E25.20208
G1 X159.578 Y115.436 E25.2247
G1 X159.13 Y119.06 E25.99884
G1 X159.124 Y119.11 E26.00951
G1 X159.027 Y119.805 E26.15828
G1 X158.998 Y119.977 E26.19526
G1 X158.944 Y120.255 E26.2553
G1 X158.921 Y120.364 E26.27891
G1 X158.102 Y123.925 E27.05355
G1 X158.09 Y123.975 E27.06445
G1 X157.923 Y124.652 E27.21228
G1 X157.877 Y124.82 E27.24921
G1 X157.794 Y125.093 E27.3097
G1 X157.76 Y125.199 E27.3333
G1 X156.588 Y128.629 E28.10174
G1 X156.572 Y128.672 E28.11146
G1 X156.325 Y129.363 E28.26703
G1 X156.258 Y129.536 E28.30636
G1 X156.159 Y129.77 E28.36023
G1 X156.117 Y129.866 E28.38244
G1 X154.583 Y133.19 E29.15855
G1 X154.564 Y133.231 E29.16813
G1 X154.257 Y133.873 E29.319
G1 X154.171 Y134.04 E29.35882
G1 X154.047 Y134.265 E29.41328
G1 X153.995 Y134.355 E29.43532
G1 X152.114 Y137.526 E30.21695
G1 X152.088 Y137.568 E30.22742
G1 X151.735 Y138.143 E30.37046
G1 X151.644 Y138.284 E30.40603
G1 X151.475 Y138.53 E30.46931
G1 X151.407 Y138.626 E30.49425
G1 X149.227 Y141.566 E31.27018
G1 X149.197 Y141.606 E31.28078
G1 X148.789 Y142.139 E31.42308
G1 X148.675 Y142.279 E31.46136
G1 X148.495 Y142.489 E31.51999
G1 X148.424 Y142.569 E31.54267
G1 X145.91 Y145.314 E32.33179
G1 X145.877 Y145.349 E32.34199
G1 X145.444 Y145.808 E32.47576
G1 X145.291 Y145.96 E32.52148
G1 X144.938 Y146.288 E32.62364
G1 X144.884 Y146.338 E32.63924
G1 X142.307 Y148.626 E33.36982
G1 X142.269 Y148.658 E33.38035
G1 X141.715 Y149.135 E33.53534
G1 X141.582 Y149.244 E33.57179
G1 X141.388 Y149.394 E33.62378
G1 X141.298 Y149.461 E33.64757
G1 X138.32 Y151.604 E34.42538
G1 X138.281 Y151.632 E34.43555
G1 X137.709 Y152.031 E34.58341
G1 X137.548 Y152.136 E34.62415
G1 X137.305 Y152.285 E34.68458
G1 X137.222 Y152.335 E34.70513
G1 X134.026 Y154.167 E35.4861
G1 X133.989 Y154.187 E35.49502
G1 X133.412 Y154.508 E35.63499
G1 X133.21 Y154.612 E35.68316
G1 X132.783 Y154.812 E35.78312
G1 X132.72 Y154.84 E35.79774
G1 X129.537 Y156.25 E36.53578
G1 X129.497 Y156.268 E36.54508
G1 X128.874 Y156.534 E36.68869
G1 X128.697 Y156.603 E36.72896
G1 X128.444 Y156.694 E36.78596
G1 X128.349 Y156.727 E36.80728
G1 X124.882 Y157.855 E37.58021
G1 X124.838 Y157.869 E37.59
G1 X124.144 Y158.084 E37.74403
G1 X123.932 Y158.142 E37.79062
G1 X123.452 Y158.256 E37.89521
G1 X123.382 Y158.271 E37.91039
G1 X120.014 Y158.993 E38.64063
G1 X119.973 Y159.002 E38.64953
G1 X119.306 Y159.136 E38.79376
G1 X119.112 Y159.169 E38.83547
G1 X118.824 Y159.209 E38.89712
G1 X118.728 Y159.221 E38.91763
G1 X115.094 Y159.616 E39.69257
G1 X115.046 Y159.621 E39.7028
G1 X114.365 Y159.685 E39.84781
G1 X114.19 Y159.696 E39.88499
G1 X113.89 Y159.708 E39.94864
G1 X113.778 Y159.711 E39.97239
G1 X110.107 Y159.731 E40.75065
G1 X110.064 Y159.731 E40.75977
G1 X109.403 Y159.726 E40.8999
G1 X109.213 Y159.719 E40.94021
G1 X108.94 Y159.701 E40.99821
G1 X108.838 Y159.693 E41.0199
G1 X105.209 Y159.339 E41.7929
G1 X105.164 Y159.334 E41.8025
G1 X104.438 Y159.253 E41.95737
G1 X104.25 Y159.226 E41.99763
G1 X104.01 Y159.185 E42.04925
G1 X103.91 Y159.167 E42.07079
G1 X100.317 Y158.437 E42.84807
G1 X100.27 Y158.427 E42.85826
G1 X99.588 Y158.278 E43.00625
G1 X99.422 Y158.237 E43.0425
G1 X99.174 Y158.169 E43.09702
G1 X99.062 Y158.136 E43.12177
G1 X95.526 Y157.029 E43.90728
G1 X95.478 Y157.013 E43.91801
G1 X94.857 Y156.808 E44.05665
G1 X94.707 Y156.755 E44.09037
G1 X94.429 Y156.648 E44.15352
G1 X94.311 Y156.6 E44.18053
G1 X90.963 Y155.159 E44.95326
G1 X90.924 Y155.142 E44.96228
G1 X90.274 Y154.852 E45.11317
G1 X90.097 Y154.766 E45.15489
G1 X89.853 Y154.639 E45.2132
G1 X89.767 Y154.593 E45.23388
G1 X86.578 Y152.811 E46.00834
G1 X86.535 Y152.787 E46.01878
G1 X85.92 Y152.431 E46.16943
G1 X85.772 Y152.34 E46.20626
G1 X85.585 Y152.218 E46.2536
G1 X85.513 Y152.169 E46.27206
G1 X85.267 Y151.999 E46.33545
G1 X85.245 Y151.983 E46.34122
G1 X82.47 Y150.031 E47.06049
G1 X82.43 Y150.003 E47.07084
G1 X81.843 Y149.577 E47.2246
G1 X81.708 Y149.474 E47.2606
G1 X81.546 Y149.343 E47.30477
G1 X81.48 Y149.288 E47.32298
G1 X81.262 Y149.102 E47.38373
G1 X81.238 Y149.082 E47.39036
G1 X78.652 Y146.833 E48.11691
G1 X78.618 Y146.802 E48.12667
G1 X78.106 Y146.344 E48.2723
G1 X77.981 Y146.226 E48.30874
G1 X77.801 Y146.047 E48.36256
G1 X77.737 Y145.982 E48.3819
G1 X77.582 Y145.819 E48.42959
G1 X77.564 Y145.8 E48.43513
G1 X75.215 Y143.289 E49.16408
G1 X75.183 Y143.254 E49.17414
G1 X74.685 Y142.706 E49.33112
G1 X74.541 Y142.536 E49.37835
G1 X74.234 Y142.148 E49.48324
G1 X74.192 Y142.094 E49.49775
G1 X72.122 Y139.363 E50.22424
G1 X72.093 Y139.324 E50.23454
G1 X71.686 Y138.77 E50.38028
G1 X71.586 Y138.626 E50.41744
G1 X71.438 Y138.4 E50.47471
G1 X71.38 Y138.308 E50.49777
G1 X69.481 Y135.187 E51.27228
G1 X69.455 Y135.144 E51.28293
G1 X69.089 Y134.521 E51.43611
G1 X69.004 Y134.367 E51.4734
G1 X68.9 Y134.166 E51.52138
G1 X68.862 Y134.09 E51.53939
G1 X68.766 Y133.892 E51.58604
G1 X68.754 Y133.867 E51.59192
G1 X67.253 Y130.702 E52.33453
G1 X67.234 Y130.661 E52.34411
G1 X66.96 Y130.062 E52.48376
G1 X66.894 Y129.908 E52.51928
G1 X66.8 Y129.671 E52.57333
G1 X66.768 Y129.586 E52.59258
G1 X66.691 Y129.375 E52.6402
G1 X66.679 Y129.343 E52.64745
G1 X65.525 Y126.075 E53.38219
G1 X65.511 Y126.035 E53.39117
G1 X65.288 Y125.376 E53.53866
G1 X65.237 Y125.21 E53.57548
G1 X65.172 Y124.978 E53.62656
G1 X65.148 Y124.889 E53.6461
G1 X65.094 Y124.673 E53.6933
G1 X65.088 Y124.646 E53.69916
G1 X64.274 Y121.27 E54.43539
G1 X64.265 Y121.234 E54.44325
G1 X64.109 Y120.553 E54.59137
G1 X64.064 Y120.316 E54.64251
G1 X63.992 Y119.844 E54.74373
G1 X63.984 Y119.788 E54.75572
G1 X63.528 Y116.405 E55.4794
G1 X63.522 Y116.357 E55.48966
G1 X63.434 Y115.621 E55.6468
G1 X63.418 Y115.446 E55.68406
G1 X63.4 Y115.171 E55.74248
G1 X63.395 Y115.06 E55.76604
G1 X63.282 Y111.454 E56.53088
G1 X63.28 Y111.408 E56.54065
G1 X63.267 Y110.654 E56.70052
G1 X63.271 Y110.435 E56.74695
G1 X63.294 Y109.976 E56.84438
G1 X63.298 Y109.906 E56.85925
G1 X63.545 Y106.46 E57.59167
G1 X63.549 Y106.413 E57.60167
G1 X63.61 Y105.705 E57.75233
G1 X63.631 Y105.525 E57.79074
G1 X63.667 Y105.272 E57.84492
G1 X63.684 Y105.164 E57.8681
G1 X64.321 Y101.555 E58.64503
G1 X64.329 Y101.51 E58.65472
G1 X64.463 Y100.809 E58.80603
G1 X64.513 Y100.589 E58.85385
G1 X64.632 Y100.138 E58.95274
G1 X64.65 Y100.074 E58.96683
G1 X65.599 Y96.752 E59.69927
G1 X65.612 Y96.708 E59.709
G1 X65.817 Y96.027 E59.85977
G1 X65.872 Y95.861 E59.89684
G1 X65.956 Y95.628 E59.94935
G1 X65.988 Y95.54 E59.9692
G1 X66.069 Y95.334 E60.01613
G1 X66.077 Y95.315 E60.0205
G1 X67.35 Y92.138 E60.74608
G1 X67.369 Y92.092 E60.75663
G1 X67.654 Y91.411 E60.91314
G1 X67.727 Y91.249 E60.95081
G1 X67.846 Y91.003 E61.00874
G1 X67.895 Y90.906 E61.03178
G1 X69.57 Y87.718 E61.79524
G1 X69.589 Y87.682 E61.80387
G1 X69.955 Y87.006 E61.96684
G1 X70.063 Y86.821 E62.01225
G1 X70.199 Y86.605 E62.06637
G1 X70.243 Y86.538 E62.08336
G1 X72.269 Y83.49 E62.85926
G1 X72.298 Y83.447 E62.87026
G1 X72.694 Y82.871 E63.01844
G1 X72.798 Y82.728 E63.05593
G1 X72.966 Y82.51 E63.11428
G1 X73.034 Y82.425 E63.13735
G1 X75.369 Y79.596 E63.91501
G1 X75.397 Y79.562 E63.92434
G1 X75.839 Y79.041 E64.06919
G1 X75.966 Y78.9 E64.10942
G1 X76.13 Y78.728 E64.1598
G1 X76.184 Y78.672 E64.17629
G1 X76.392 Y78.464 E64.23866
G10
;MESH:C4_Extractor.STL
G0 F3927.3 X77.774 Y80.534
G0 X78.922 Y81.698
G0 X90.365 Y97.571
G0 X91.063 Y98.91
;TYPE:WALL-INNER
G11
G1 F1800 X91.065 Y98.077 E64.41525
G1 X90.8 Y97.328 E64.58369
G1 X90.306 Y96.715 E64.75059
G1 X82.549 Y91.842 E66.69264
G1 X81.829 Y91.41 E66.87065
G1 X81.101 Y91.237 E67.02928
G1 X80.356 Y91.305 E67.18788
G1 X79.677 Y91.599 E67.34474
G1 X79.098 Y92.113 E67.50888
G1 X77.088 Y95.942 E68.42567
G1 X75.632 Y99.672 E69.27454
G1 X74.579 Y103.531 E70.12256
G1 X73.94 Y107.48 E70.97064
G1 X73.723 Y111.474 E71.81862
G1 X73.928 Y115.469 E72.66667
G1 X74.555 Y119.421 E73.51497
G1 X75.597 Y123.281 E74.36259
G1 X77.041 Y127.013 E75.21093
G1 X78.872 Y130.569 E76.05887
G1 X81.109 Y133.978 E76.92328
G1 X81.603 Y134.455 E77.06887
G1 X82.274 Y134.777 E77.22665
G1 X83.013 Y134.875 E77.38469
G1 X83.688 Y134.745 E77.53042
G1 X84.12 Y134.55 E77.6309
G1 X91.295 Y128.969 E79.55798
G1 X91.964 Y128.421 E79.74132
G1 X92.388 Y127.751 E79.90941
G1 X92.559 Y126.973 E80.07828
G1 X92.463 Y126.188 E80.24594
G1 X92.187 Y125.628 E80.3783
G1 X90.574 Y123.058 E81.02156
G1 X89.277 Y120.298 E81.66807
G1 X88.347 Y117.424 E82.30846
G1 X87.786 Y114.424 E82.95548
G1 X87.611 Y111.381 E83.60167
G1 X87.82 Y108.356 E84.24449
G1 X88.412 Y105.38 E84.88777
G1 X89.379 Y102.504 E85.53102
G1 X90.761 Y99.652 E86.20289
G1 X91.063 Y98.91 E86.37273
G0 F3927.3 X99.005 Y111.905
G1 F1800 X98.576 Y111.009 E86.58333
G1 X97.872 Y110.508 E86.76651
G1 X97.337 Y110.347 E86.88496
G1 X96.458 Y110.403 E87.07168
G1 X95.624 Y110.936 E87.28151
G1 X95.155 Y111.814 E87.49254
G1 X95.175 Y112.805 E87.70268
G1 X95.672 Y113.66 E87.91233
G1 X96.527 Y114.167 E88.12307
G1 X97.519 Y114.19 E88.33343
G1 X98.396 Y113.728 E88.54357
G1 X98.936 Y112.899 E88.75332
G1 X99.005 Y111.905 E88.96455
G0 F3927.3 X124.015 Y110.324
G1 F1800 X124.037 Y111.316 E89.17491
G1 X124.531 Y112.171 E89.38425
G1 X125.388 Y112.679 E89.59545
G1 X126.381 Y112.702 E89.80602
G1 X127.258 Y112.241 E90.01607
G1 X127.797 Y111.409 E90.22623
G1 X127.866 Y110.419 E90.43662
G1 X127.439 Y109.521 E90.64742
G1 X126.734 Y109.019 E90.8309
G1 X126.199 Y108.859 E90.94929
G1 X125.318 Y108.915 E91.13644
G1 X124.488 Y109.449 E91.34567
G1 X124.015 Y110.324 E91.55654
G0 F3927.3 X131.936 Y124.162
G1 F1800 X131.935 Y124.982 E91.73038
G1 X132.198 Y125.733 E91.89907
G1 X132.695 Y126.345 E92.06621
G1 X140.451 Y131.218 E94.00808
G1 X141.172 Y131.65 E94.18627
G1 X141.898 Y131.821 E94.34439
G1 X142.642 Y131.757 E94.5027
G1 X143.325 Y131.461 E94.66051
G1 X143.902 Y130.947 E94.82433
G1 X145.912 Y127.117 E95.74132
G1 X147.368 Y123.388 E96.58999
G1 X148.421 Y119.528 E97.43821
G1 X149.06 Y115.579 E98.28629
G1 X149.277 Y111.585 E99.13427
G1 X149.072 Y107.591 E99.98211
G1 X148.445 Y103.639 E100.83041
G1 X147.403 Y99.778 E101.67823
G1 X145.959 Y96.047 E102.52637
G1 X144.128 Y92.491 E103.37431
G1 X141.891 Y89.082 E104.23873
G1 X141.397 Y88.606 E104.38416
G1 X140.726 Y88.28 E104.54232
G1 X139.984 Y88.186 E104.70088
G1 X139.312 Y88.315 E104.84594
G1 X138.88 Y88.51 E104.94642
G1 X131.706 Y94.091 E106.87334
G1 X131.036 Y94.638 E107.0567
G1 X130.612 Y95.31 E107.22515
G1 X130.441 Y96.087 E107.39382
G1 X130.537 Y96.872 E107.56148
G1 X130.813 Y97.432 E107.69384
G1 X132.424 Y99.999 E108.33633
G1 X133.724 Y102.764 E108.98407
G1 X134.653 Y105.636 E109.62399
