;FLAVOR:UltiGCode
;TIME:2780
;MATERIAL:11255
;MATERIAL2:0
;NOZZLE_DIAMETER:0.8
;MINX:78.708
;MINY:75.399
;MINZ:0.53
;MAXX:141.308
;MAXY:144.611
;MAXZ:44.73
;Generated with Cura_SteamEngine 4.3.0
M82 ;absolute extrusion mode

G92 E0
G92 E0
G10
;LAYER_COUNT:222
;LAYER:0
M107
G0 F5472 X81.271 Y86.809 Z0.53
;TYPE:SKIRT
G11
G1 F2280 X81.866 Y86.27 E0.29785
G1 X82.511 Y85.794 E0.59525
G1 X83.201 Y85.384 E0.89303
G1 X83.928 Y85.045 E1.19063
G1 X84.685 Y84.78 E1.48818
G1 X85.329 Y84.625 E1.73393
G1 X85.446 Y84.539 E1.7878
G1 X86.136 Y84.131 E2.0852
G1 X86.864 Y83.794 E2.38282
G1 X87.622 Y83.531 E2.68048
G1 X88.403 Y83.345 E2.97834
G1 X89.438 Y83.22 E3.36511
G1 X90.403 Y83.167 E3.72367
G1 X90.844 Y83.155 E3.88734
G1 X92.48 Y83.155 E4.4943
G1 X92.736 Y83.159 E4.58928
G1 X93.803 Y83.193 E4.98534
G1 X94.603 Y83.259 E5.28315
G1 X95.392 Y83.403 E5.5807
G1 X96.163 Y83.626 E5.87847
G1 X96.732 Y83.854 E6.10588
G1 X96.748 Y83.537 E6.22364
G1 X96.868 Y82.743 E6.52156
G1 X97.065 Y81.966 E6.81895
G1 X97.34 Y81.212 E7.11671
G1 X97.688 Y80.489 E7.41439
G1 X98.106 Y79.805 E7.71179
G1 X98.59 Y79.165 E8.00949
G1 X99.066 Y78.646 E8.27075
G1 X99.271 Y78.441 E8.37831
G1 X99.866 Y77.902 E8.67616
G1 X100.511 Y77.426 E8.97357
G1 X101.201 Y77.016 E9.27134
G1 X101.928 Y76.677 E9.56894
G1 X102.685 Y76.412 E9.8665
G1 X103.465 Y76.224 E10.16416
G1 X104.259 Y76.114 E10.46155
G1 X104.96 Y76.083 E10.72188
G1 X107.95 Y76.082 E11.83117
G1 X108.752 Y76.122 E12.12908
G1 X109.545 Y76.241 E12.42657
G1 X110.322 Y76.439 E12.72405
G1 X111.076 Y76.713 E13.02169
G1 X111.799 Y77.06 E13.31921
G1 X112.484 Y77.478 E13.61693
G1 X113.124 Y77.962 E13.91462
G1 X113.645 Y78.44 E14.17694
G1 X113.85 Y78.645 E14.28449
G1 X114.389 Y79.24 E14.58235
G1 X114.865 Y79.885 E14.87975
G1 X115.275 Y80.575 E15.17752
G1 X115.614 Y81.302 E15.47512
G1 X115.879 Y82.059 E15.77268
G1 X116.067 Y82.839 E16.07035
G1 X116.177 Y83.633 E16.36773
G1 X116.208 Y84.337 E16.62917
G1 X116.208 Y85.256 E16.97012
G1 X124.676 Y85.255 E20.11175
G1 X125.477 Y85.295 E20.40929
G1 X126.271 Y85.414 E20.70715
G1 X127.048 Y85.612 E21.00463
G1 X127.317 Y85.71 E21.11085
G1 X133.052 Y85.709 E23.23853
G1 X133.853 Y85.749 E23.53607
G1 X134.647 Y85.868 E23.83394
G1 X135.424 Y86.066 E24.13142
G1 X136.178 Y86.34 E24.42905
G1 X136.901 Y86.688 E24.72674
G1 X137.586 Y87.106 E25.02445
G1 X138.225 Y87.59 E25.32185
G1 X138.745 Y88.067 E25.58364
G1 X138.95 Y88.272 E25.6912
G1 X139.489 Y88.867 E25.98905
G1 X139.965 Y89.512 E26.28645
G1 X140.375 Y90.202 E26.58422
G1 X140.714 Y90.929 E26.88182
G1 X140.979 Y91.686 E27.17938
G1 X141.167 Y92.466 E27.47705
G1 X141.277 Y93.26 E27.77444
G1 X141.308 Y93.964 E28.03587
G1 X141.308 Y136.356 E43.76331
G1 X141.268 Y137.157 E44.06085
G1 X141.148 Y137.951 E44.35877
G1 X140.951 Y138.728 E44.65615
G1 X140.676 Y139.482 E44.95391
G1 X140.328 Y140.205 E45.2516
G1 X139.91 Y140.889 E45.549
G1 X139.426 Y141.529 E45.84669
G1 X138.95 Y142.048 E46.10796
G1 X138.745 Y142.253 E46.21552
G1 X138.15 Y142.792 E46.51337
G1 X137.505 Y143.268 E46.81077
G1 X136.815 Y143.678 E47.10854
G1 X136.088 Y144.017 E47.40614
G1 X135.331 Y144.282 E47.7037
G1 X134.551 Y144.47 E48.00137
G1 X133.757 Y144.58 E48.29876
G1 X133.053 Y144.611 E48.56019
G1 X124.563 Y144.611 E51.70998
G1 X123.762 Y144.571 E52.00752
G1 X122.968 Y144.451 E52.30544
G1 X122.191 Y144.254 E52.60283
G1 X121.437 Y143.979 E52.90059
G1 X120.714 Y143.631 E53.19828
G1 X120.03 Y143.213 E53.49567
G1 X119.39 Y142.729 E53.79337
G1 X118.871 Y142.253 E54.05464
G1 X118.666 Y142.048 E54.16219
G1 X118.127 Y141.453 E54.46005
G1 X117.651 Y140.808 E54.75745
G1 X117.241 Y140.118 E55.05522
G1 X116.902 Y139.391 E55.35282
G1 X116.637 Y138.634 E55.65038
G1 X116.449 Y137.854 E55.94804
G1 X116.339 Y137.06 E56.24543
G1 X116.308 Y136.356 E56.50687
G1 X116.308 Y104.249 E68.41857
G1 X116.202 Y104.249 E68.45789
G1 X116.208 Y107.544 E69.68034
G1 X116.169 Y108.346 E69.97823
G1 X116.051 Y109.139 E70.27568
G1 X115.855 Y109.917 E70.57333
G1 X115.582 Y110.671 E70.87084
G1 X115.235 Y111.395 E71.1687
G1 X114.818 Y112.08 E71.46622
G1 X114.335 Y112.721 E71.76399
G1 X113.85 Y113.251 E72.03052
G1 X113.645 Y113.456 E72.13808
G1 X113.05 Y113.995 E72.43593
G1 X112.405 Y114.471 E72.73333
G1 X111.715 Y114.881 E73.0311
G1 X110.988 Y115.22 E73.3287
G1 X110.231 Y115.485 E73.62626
G1 X109.451 Y115.673 E73.92393
G1 X108.657 Y115.783 E74.22131
G1 X107.953 Y115.814 E74.48275
G1 X104.963 Y115.814 E75.59204
G1 X104.162 Y115.774 E75.88958
G1 X103.368 Y115.654 E76.1875
G1 X102.591 Y115.457 E76.48489
G1 X101.837 Y115.182 E76.78265
G1 X101.114 Y114.834 E77.08034
G1 X100.43 Y114.416 E77.37773
G1 X99.79 Y113.932 E77.67543
G1 X99.271 Y113.456 E77.9367
G1 X99.066 Y113.251 E78.04425
G1 X98.527 Y112.656 E78.34211
G1 X98.051 Y112.011 E78.63951
G1 X97.641 Y111.321 E78.93728
G1 X97.302 Y110.594 E79.23488
G1 X97.037 Y109.837 E79.53244
G1 X96.849 Y109.057 E79.8301
G1 X96.739 Y108.263 E80.12749
G1 X96.708 Y107.559 E80.38893
G1 X96.708 Y103.442 E81.91634
G1 X86.964 Y103.443 E85.53136
G1 X86.162 Y103.403 E85.82927
G1 X85.369 Y103.284 E86.12677
G1 X84.592 Y103.086 E86.42425
G1 X83.838 Y102.812 E86.72188
G1 X83.115 Y102.464 E87.01957
G1 X82.43 Y102.046 E87.31728
G1 X81.791 Y101.561 E87.6149
G1 X81.271 Y101.085 E87.87644
G1 X81.066 Y100.88 E87.984
G1 X80.527 Y100.285 E88.28186
G1 X80.051 Y99.64 E88.57926
G1 X79.641 Y98.95 E88.87703
G1 X79.302 Y98.223 E89.17463
G1 X79.037 Y97.466 E89.47219
G1 X78.849 Y96.686 E89.76985
G1 X78.739 Y95.892 E90.06724
G1 X78.708 Y95.188 E90.32868
G1 X78.708 Y92.706 E91.2495
G1 X78.748 Y91.905 E91.54704
G1 X78.868 Y91.111 E91.84496
G1 X79.065 Y90.334 E92.14235
G1 X79.34 Y89.58 E92.44011
G1 X79.688 Y88.857 E92.7378
G1 X80.106 Y88.173 E93.03519
G1 X80.59 Y87.533 E93.33289
G1 X81.066 Y87.014 E93.59415
G1 X81.271 Y86.809 E93.70171
G0 F5472 X81.766 Y87.304
G1 F2280 X82.335 Y86.791 E93.98594
G1 X82.955 Y86.34 E94.27038
G1 X83.619 Y85.956 E94.55495
G1 X84.319 Y85.643 E94.83943
G1 X85.047 Y85.405 E95.12359
G1 X85.615 Y85.283 E95.33912
G1 X86.004 Y85.013 E95.5148
G1 X86.675 Y84.643 E95.79908
G1 X87.381 Y84.345 E96.08338
G1 X88.115 Y84.123 E96.36788
G1 X88.868 Y83.978 E96.65237
G1 X89.476 Y83.919 E96.879
G1 X90.441 Y83.866 E97.23755
G1 X90.844 Y83.855 E97.38712
G1 X92.48 Y83.855 E97.99408
G1 X92.714 Y83.859 E98.0809
G1 X93.781 Y83.893 E98.47696
G1 X94.545 Y83.957 E98.7614
G1 X95.298 Y84.101 E99.04582
G1 X96.032 Y84.322 E99.33021
G1 X96.739 Y84.618 E99.61457
G1 X97.408 Y84.985 E99.89766
G1 X97.408 Y84.338 E100.1377
G1 X97.448 Y83.572 E100.42227
G1 X97.567 Y82.815 E100.70657
G1 X97.765 Y82.075 E100.99077
G1 X98.039 Y81.359 E101.27519
G1 X98.386 Y80.675 E101.55974
G1 X98.802 Y80.031 E101.84418
G1 X99.283 Y79.434 E102.12861
G1 X99.561 Y79.141 E102.27846
G1 X99.766 Y78.936 E102.38601
G1 X100.335 Y78.423 E102.67024
G1 X100.955 Y77.972 E102.95468
G1 X101.619 Y77.588 E103.23925
G1 X102.319 Y77.275 E103.52373
G1 X103.047 Y77.037 E103.80789
G1 X103.797 Y76.876 E104.09248
G1 X104.559 Y76.794 E104.37681
G1 X104.961 Y76.783 E104.52601
G1 X107.951 Y76.782 E105.6353
G1 X108.716 Y76.822 E105.9195
G1 X109.473 Y76.941 E106.2038
G1 X110.214 Y77.138 E106.48826
G1 X110.93 Y77.412 E106.77268
G1 X111.614 Y77.759 E107.05723
G1 X112.258 Y78.174 E107.34147
G1 X112.855 Y78.655 E107.6259
G1 X113.15 Y78.935 E107.77679
G1 X113.355 Y79.14 E107.88435
G1 X113.868 Y79.709 E108.16858
G1 X114.319 Y80.329 E108.45302
G1 X114.703 Y80.993 E108.73759
G1 X115.016 Y81.693 E109.02207
G1 X115.254 Y82.421 E109.30622
G1 X115.415 Y83.171 E109.59081
G1 X115.497 Y83.933 E109.87515
G1 X115.508 Y84.337 E110.02509
G1 X115.508 Y85.956 E110.62574
G1 X124.676 Y85.955 E114.02706
G1 X125.442 Y85.995 E114.31164
G1 X126.199 Y86.114 E114.59593
G1 X126.94 Y86.312 E114.88049
G1 X127.195 Y86.41 E114.98184
G1 X133.052 Y86.409 E117.15479
G1 X133.818 Y86.449 E117.43936
G1 X134.575 Y86.568 E117.72366
G1 X135.315 Y86.766 E118.00785
G1 X136.031 Y87.04 E118.29228
G1 X136.715 Y87.386 E118.57666
G1 X137.359 Y87.802 E118.8611
G1 X137.956 Y88.283 E119.14553
G1 X138.25 Y88.562 E119.2959
G1 X138.455 Y88.767 E119.40346
G1 X138.968 Y89.336 E119.68768
G1 X139.419 Y89.956 E119.97212
G1 X139.803 Y90.62 E120.2567
G1 X140.116 Y91.32 E120.54118
G1 X140.354 Y92.048 E120.82533
G1 X140.515 Y92.798 E121.10992
G1 X140.597 Y93.56 E121.39425
G1 X140.608 Y93.964 E121.54419
G1 X140.608 Y136.356 E137.27163
G1 X140.568 Y137.122 E137.5562
G1 X140.449 Y137.879 E137.84049
G1 X140.251 Y138.619 E138.12469
G1 X139.977 Y139.335 E138.40911
G1 X139.63 Y140.019 E138.69367
G1 X139.214 Y140.663 E138.9781
G1 X138.733 Y141.26 E139.26253
G1 X138.455 Y141.553 E139.41238
G1 X138.25 Y141.758 E139.51994
G1 X137.681 Y142.271 E139.80417
G1 X137.061 Y142.722 E140.0886
G1 X136.397 Y143.106 E140.37318
G1 X135.697 Y143.419 E140.65766
G1 X134.969 Y143.657 E140.94181
G1 X134.219 Y143.818 E141.2264
G1 X133.457 Y143.9 E141.51073
G1 X133.053 Y143.911 E141.66067
G1 X124.563 Y143.911 E144.81046
G1 X123.797 Y143.871 E145.09504
G1 X123.04 Y143.752 E145.37933
G1 X122.3 Y143.554 E145.66353
G1 X121.584 Y143.28 E145.94795
G1 X120.9 Y142.933 E146.2325
G1 X120.256 Y142.517 E146.51694
G1 X119.659 Y142.036 E146.80137
G1 X119.366 Y141.758 E146.95122
G1 X119.161 Y141.553 E147.05878
G1 X118.648 Y140.984 E147.343
G1 X118.197 Y140.364 E147.62744
G1 X117.813 Y139.7 E147.91202
G1 X117.5 Y139 E148.1965
G1 X117.262 Y138.272 E148.48065
G1 X117.101 Y137.522 E148.76524
G1 X117.019 Y136.76 E149.04957
G1 X117.008 Y136.356 E149.19951
G1 X117.008 Y103.549 E161.37091
G1 X115.501 Y103.549 E161.93001
G1 X115.508 Y107.546 E163.4129
G1 X115.469 Y108.311 E163.69708
G1 X115.351 Y109.069 E163.98168
G1 X115.155 Y109.81 E164.26605
G1 X114.883 Y110.526 E164.55021
G1 X114.537 Y111.21 E164.83459
G1 X114.122 Y111.855 E165.11914
G1 X113.642 Y112.453 E165.40363
G1 X113.355 Y112.756 E165.55846
G1 X113.15 Y112.961 E165.66602
G1 X112.581 Y113.474 E165.95025
G1 X111.961 Y113.925 E166.23469
G1 X111.297 Y114.309 E166.51926
G1 X110.597 Y114.622 E166.80374
G1 X109.869 Y114.86 E167.08789
G1 X109.119 Y115.021 E167.37248
G1 X108.357 Y115.103 E167.65682
G1 X107.953 Y115.114 E167.80676
G1 X104.963 Y115.114 E168.91605
G1 X104.197 Y115.074 E169.20062
G1 X103.44 Y114.955 E169.48492
G1 X102.7 Y114.757 E169.76911
G1 X101.984 Y114.483 E170.05354
G1 X101.3 Y114.136 E170.33809
G1 X100.656 Y113.72 E170.62252
G1 X100.059 Y113.239 E170.90696
G1 X99.766 Y112.961 E171.0568
G1 X99.561 Y112.756 E171.16436
G1 X99.048 Y112.187 E171.44859
G1 X98.597 Y111.567 E171.73303
G1 X98.213 Y110.903 E172.0176
G1 X97.9 Y110.203 E172.30208
G1 X97.662 Y109.475 E172.58623
G1 X97.501 Y108.725 E172.87082
G1 X97.419 Y107.963 E173.15516
G1 X97.408 Y107.559 E173.3051
G1 X97.408 Y102.742 E175.0922
G1 X86.964 Y102.743 E178.96693
G1 X86.198 Y102.703 E179.2515
G1 X85.441 Y102.584 E179.5358
G1 X84.7 Y102.386 E179.82035
G1 X83.984 Y102.112 E180.10477
G1 X83.301 Y101.766 E180.38883
G1 X82.657 Y101.349 E180.67347
G1 X82.06 Y100.869 E180.95766
G1 X81.766 Y100.59 E181.10803
G1 X81.561 Y100.385 E181.21559
G1 X81.048 Y99.816 E181.49982
G1 X80.597 Y99.196 E181.78426
G1 X80.213 Y98.532 E182.06883
G1 X79.9 Y97.832 E182.35331
G1 X79.662 Y97.104 E182.63747
G1 X79.501 Y96.354 E182.92206
G1 X79.419 Y95.592 E183.20639
G1 X79.408 Y95.188 E183.35633
G1 X79.408 Y92.706 E184.27715
G1 X79.448 Y91.94 E184.56172
G1 X79.567 Y91.183 E184.84602
G1 X79.765 Y90.443 E185.13022
G1 X80.039 Y89.727 E185.41464
G1 X80.386 Y89.043 E185.69919
G1 X80.802 Y88.399 E185.98363
G1 X81.283 Y87.802 E186.26806
G1 X81.561 Y87.509 E186.41791
G1 X81.766 Y87.304 E186.52546
G0 F5472 X82.261 Y87.799
G1 F2280 X82.804 Y87.312 E186.79607
G1 X83.397 Y86.888 E187.06652
G1 X84.033 Y86.531 E187.33711
G1 X84.704 Y86.246 E187.60758
G1 X85.402 Y86.037 E187.87789
G1 X85.881 Y85.949 E188.05858
G1 X85.945 Y85.896 E188.08941
G1 X86.556 Y85.498 E188.35994
G1 X87.207 Y85.169 E188.63055
G1 X87.889 Y84.913 E188.90081
G1 X88.596 Y84.733 E189.17147
G1 X89.514 Y84.618 E189.51471
G1 X90.479 Y84.565 E189.87327
G1 X90.844 Y84.555 E190.00873
G1 X92.48 Y84.555 E190.61569
G1 X92.692 Y84.558 E190.69435
G1 X93.759 Y84.592 E191.09041
G1 X94.485 Y84.656 E191.3608
G1 X95.2 Y84.798 E191.63124
G1 X95.895 Y85.017 E191.90159
G1 X96.562 Y85.312 E192.17217
G1 X97.193 Y85.678 E192.4428
G1 X97.446 Y85.864 E192.5593
G1 X97.938 Y85.891 E192.7421
G1 X98.108 Y85.919 E192.80602
G1 X98.108 Y84.338 E193.39257
G1 X98.148 Y83.61 E193.66307
G1 X98.267 Y82.891 E193.93345
G1 X98.465 Y82.189 E194.20405
G1 X98.738 Y81.513 E194.47453
G1 X99.083 Y80.871 E194.74492
G1 X99.497 Y80.27 E195.01567
G1 X100.056 Y79.636 E195.32926
G1 X100.261 Y79.431 E195.43682
G1 X100.804 Y78.944 E195.70742
G1 X101.397 Y78.52 E195.97788
G1 X102.033 Y78.163 E196.24847
G1 X102.704 Y77.878 E196.51893
G1 X103.402 Y77.669 E196.78925
G1 X104.119 Y77.537 E197.05973
G1 X104.961 Y77.483 E197.37275
G1 X107.951 Y77.482 E198.48204
G1 X108.679 Y77.522 E198.75254
G1 X109.398 Y77.641 E199.02291
G1 X110.1 Y77.838 E199.29342
G1 X110.776 Y78.111 E199.56389
G1 X111.418 Y78.456 E199.83429
G1 X112.019 Y78.87 E200.10504
G1 X112.655 Y79.43 E200.41943
G1 X112.86 Y79.635 E200.52698
G1 X113.347 Y80.178 E200.79759
G1 X113.771 Y80.771 E201.06804
G1 X114.128 Y81.407 E201.33863
G1 X114.413 Y82.078 E201.6091
G1 X114.622 Y82.776 E201.87941
G1 X114.754 Y83.493 E202.14989
G1 X114.808 Y84.337 E202.46366
G1 X114.808 Y86.691 E203.33699
G1 X115.261 Y86.656 E203.50555
G1 X124.676 Y86.655 E206.99852
G1 X125.404 Y86.695 E207.26901
G1 X126.124 Y86.814 E207.53976
G1 X126.825 Y87.012 E207.81
G1 X127.067 Y87.11 E207.90687
G1 X133.052 Y87.109 E210.1273
G1 X133.78 Y87.149 E210.3978
G1 X134.499 Y87.268 E210.66818
G1 X135.201 Y87.466 E210.93878
G1 X135.877 Y87.739 E211.20926
G1 X136.52 Y88.084 E211.47998
G1 X137.12 Y88.498 E211.75043
G1 X137.755 Y89.057 E212.06429
G1 X137.96 Y89.262 E212.17185
G1 X138.447 Y89.805 E212.44245
G1 X138.871 Y90.398 E212.71291
G1 X139.228 Y91.034 E212.9835
G1 X139.513 Y91.705 E213.25396
G1 X139.722 Y92.403 E213.52428
G1 X139.854 Y93.12 E213.79476
G1 X139.908 Y93.964 E214.10852
G1 X139.908 Y136.356 E229.83595
G1 X139.868 Y137.084 E230.10645
G1 X139.749 Y137.803 E230.37682
G1 X139.551 Y138.505 E230.64743
G1 X139.278 Y139.181 E230.9179
G1 X138.933 Y139.823 E231.1883
G1 X138.519 Y140.424 E231.45905
G1 X137.96 Y141.058 E231.77264
G1 X137.755 Y141.263 E231.88019
G1 X137.212 Y141.75 E232.1508
G1 X136.619 Y142.174 E232.42126
G1 X135.983 Y142.531 E232.69184
G1 X135.312 Y142.816 E232.96231
G1 X134.614 Y143.025 E233.23263
G1 X133.897 Y143.157 E233.5031
G1 X133.053 Y143.211 E233.81687
G1 X124.563 Y143.211 E236.96666
G1 X123.835 Y143.171 E237.23715
G1 X123.116 Y143.052 E237.50753
G1 X122.414 Y142.854 E237.77813
G1 X121.738 Y142.581 E238.04861
G1 X121.096 Y142.236 E238.319
G1 X120.495 Y141.822 E238.58976
G1 X119.861 Y141.263 E238.90334
G1 X119.656 Y141.058 E239.0109
G1 X119.169 Y140.515 E239.28151
G1 X118.745 Y139.922 E239.55196
G1 X118.388 Y139.286 E239.82255
G1 X118.103 Y138.615 E240.09301
G1 X117.894 Y137.917 E240.36333
G1 X117.762 Y137.2 E240.63381
G1 X117.708 Y136.356 E240.94757
G1 X117.708 Y102.849 E253.37867
G1 X114.799 Y102.849 E254.45791
G1 X114.808 Y107.547 E256.20087
G1 X114.769 Y108.275 E256.47134
G1 X114.651 Y108.994 E256.74166
G1 X114.455 Y109.697 E257.01242
G1 X114.183 Y110.373 E257.28276
G1 X113.839 Y111.016 E257.55331
G1 X113.426 Y111.617 E257.82385
G1 X112.86 Y112.261 E258.14193
G1 X112.655 Y112.466 E258.24949
G1 X112.112 Y112.953 E258.5201
G1 X111.519 Y113.377 E258.79055
G1 X110.883 Y113.734 E259.06114
G1 X110.212 Y114.019 E259.33161
G1 X109.514 Y114.228 E259.60192
G1 X108.797 Y114.36 E259.8724
G1 X107.953 Y114.414 E260.18616
