;FLAVOR:UltiGCode
;TIME:24119
;MATERIAL:54019
;MATERIAL2:0
;NOZZLE_DIAMETER:0.6
;MINX:85.831
;MINY:83.278
;MINZ:0.4
;MAXX:137.169
;MAXY:139.722
;MAXZ:148.15
;Generated with Cura_SteamEngine 4.3.0
M82 ;absolute extrusion mode

G92 E0
G92 E0
G10
;LAYER_COUNT:986
;LAYER:0
M107
G0 F3927.3 X99.277 Y86.413 Z0.4
;TYPE:SKIRT
G11
G1 F1800 X99.799 Y85.839 E0.16448
G1 X99.954 Y85.684 E0.21095
G1 X100.555 Y85.14 E0.38281
G1 X101.206 Y84.658 E0.55453
G1 X101.902 Y84.242 E0.72643
G1 X102.635 Y83.897 E0.89818
G1 X103.399 Y83.626 E1.07004
G1 X104.185 Y83.431 E1.24172
G1 X104.987 Y83.315 E1.41351
G1 X105.763 Y83.278 E1.57821
G1 X108.558 Y83.278 E2.17075
G1 X109.367 Y83.318 E2.34247
G1 X110.169 Y83.438 E2.51439
G1 X110.955 Y83.635 E2.68617
G1 X111.717 Y83.91 E2.85791
G1 X112.449 Y84.258 E3.02974
G1 X112.969 Y84.572 E3.15852
G1 X113.465 Y84.27 E3.28163
G1 X114.196 Y83.92 E3.45345
G1 X114.958 Y83.643 E3.62534
G1 X115.743 Y83.443 E3.79707
G1 X116.545 Y83.321 E3.96905
G1 X117.354 Y83.279 E4.14079
G1 X118.163 Y83.317 E4.31249
G1 X118.965 Y83.434 E4.48431
G1 X119.752 Y83.63 E4.65625
G1 X120.515 Y83.902 E4.82798
G1 X121.248 Y84.248 E4.99982
G1 X121.69 Y84.513 E5.10907
G1 X122.143 Y84.242 E5.22098
G1 X122.876 Y83.897 E5.39273
G1 X123.64 Y83.626 E5.56459
G1 X124.426 Y83.431 E5.73627
G1 X125.228 Y83.315 E5.90806
G1 X126.004 Y83.278 E6.07276
G1 X128.799 Y83.278 E6.6653
G1 X129.608 Y83.318 E6.83702
G1 X130.41 Y83.438 E7.00894
G1 X131.196 Y83.635 E7.18072
G1 X131.958 Y83.91 E7.35246
G1 X132.69 Y84.258 E7.52429
G1 X133.384 Y84.677 E7.69616
G1 X134.034 Y85.162 E7.86809
G1 X134.608 Y85.684 E8.03257
G1 X134.763 Y85.839 E8.07904
G1 X135.307 Y86.44 E8.2509
G1 X135.789 Y87.091 E8.42262
G1 X136.205 Y87.787 E8.59452
G1 X136.55 Y88.52 E8.76627
G1 X136.821 Y89.284 E8.93812
G1 X137.016 Y90.07 E9.10981
G1 X137.132 Y90.872 E9.2816
G1 X137.169 Y91.648 E9.4463
G1 X137.169 Y98.61 E10.92224
G1 X137.129 Y99.419 E11.09396
G1 X137.009 Y100.221 E11.26588
G1 X136.812 Y101.007 E11.43766
G1 X136.537 Y101.769 E11.60941
G1 X136.189 Y102.501 E11.78124
G1 X135.936 Y102.92 E11.885
G1 X136.015 Y103.039 E11.91528
G1 X136.394 Y103.755 E12.08703
G1 X136.701 Y104.505 E12.25883
G1 X136.933 Y105.282 E12.43074
G1 X137.087 Y106.077 E12.60242
G1 X137.169 Y107.237 E12.84895
G1 X137.169 Y115.763 E14.65646
G1 X137.129 Y116.572 E14.82818
G1 X137.009 Y117.374 E15.0001
G1 X136.812 Y118.16 E15.17188
G1 X136.537 Y118.922 E15.34362
G1 X136.189 Y119.654 E15.51545
G1 X135.934 Y120.076 E15.61998
G1 X136.205 Y120.529 E15.73189
G1 X136.55 Y121.262 E15.90364
G1 X136.821 Y122.026 E16.07549
G1 X137.016 Y122.812 E16.24718
G1 X137.132 Y123.614 E16.41897
G1 X137.169 Y124.39 E16.58367
G1 X137.169 Y131.352 E18.05961
G1 X137.129 Y132.161 E18.23133
G1 X137.009 Y132.963 E18.40325
G1 X136.812 Y133.749 E18.57503
G1 X136.537 Y134.511 E18.74678
G1 X136.189 Y135.243 E18.9186
G1 X135.77 Y135.937 E19.09047
G1 X135.285 Y136.587 E19.2624
G1 X134.763 Y137.161 E19.42688
G1 X134.608 Y137.316 E19.47335
G1 X134.007 Y137.86 E19.64521
G1 X133.356 Y138.342 E19.81693
G1 X132.66 Y138.758 E19.98883
G1 X131.927 Y139.103 E20.16058
G1 X131.163 Y139.374 E20.33244
G1 X130.377 Y139.569 E20.50412
G1 X129.575 Y139.685 E20.67591
G1 X128.799 Y139.722 E20.84061
G1 X126.004 Y139.722 E21.43315
G1 X125.195 Y139.682 E21.60487
G1 X124.393 Y139.562 E21.77679
G1 X123.607 Y139.365 E21.94857
G1 X122.845 Y139.09 E22.12031
G1 X122.113 Y138.742 E22.29214
G1 X121.691 Y138.487 E22.39667
G1 X121.227 Y138.764 E22.51123
G1 X120.493 Y139.108 E22.68308
G1 X119.729 Y139.378 E22.85487
G1 X118.942 Y139.572 E23.02671
G1 X118.14 Y139.687 E23.19847
G1 X117.377 Y139.722 E23.3604
G1 X117.185 Y139.722 E23.4011
G1 X116.376 Y139.682 E23.57282
G1 X115.574 Y139.562 E23.74473
G1 X114.788 Y139.365 E23.91652
G1 X114.026 Y139.09 E24.08826
G1 X113.294 Y138.742 E24.26009
G1 X112.872 Y138.487 E24.36462
G1 X112.419 Y138.758 E24.47653
G1 X111.686 Y139.103 E24.64828
G1 X110.922 Y139.374 E24.82013
G1 X110.136 Y139.569 E24.99182
G1 X109.334 Y139.685 E25.16361
G1 X108.558 Y139.722 E25.32831
G1 X105.763 Y139.722 E25.92085
G1 X104.954 Y139.682 E26.09257
G1 X104.152 Y139.562 E26.26448
G1 X103.366 Y139.365 E26.43627
G1 X102.604 Y139.09 E26.60801
G1 X101.872 Y138.742 E26.77984
G1 X101.178 Y138.323 E26.9517
G1 X100.528 Y137.838 E27.12363
G1 X99.954 Y137.316 E27.28812
G1 X99.799 Y137.161 E27.33459
G1 X99.255 Y136.56 E27.50644
G1 X98.773 Y135.909 E27.67817
G1 X98.357 Y135.213 E27.85007
G1 X98.012 Y134.48 E28.02181
G1 X97.741 Y133.716 E28.19367
G1 X97.546 Y132.93 E28.36535
G1 X97.43 Y132.128 E28.53715
G1 X97.393 Y131.352 E28.70185
G1 X97.393 Y125.795 E29.87993
G1 X94.203 Y125.795 E30.55621
G1 X93.394 Y125.755 E30.72793
G1 X92.592 Y125.635 E30.89984
G1 X91.806 Y125.438 E31.07163
G1 X91.044 Y125.163 E31.24337
G1 X90.312 Y124.815 E31.4152
G1 X89.618 Y124.396 E31.58706
G1 X88.968 Y123.911 E31.759
G1 X88.201 Y123.189 E31.98231
G1 X88.044 Y123.021 E32.03106
G1 X87.52 Y122.402 E32.20299
G1 X87.061 Y121.735 E32.37464
G1 X86.669 Y121.026 E32.54639
G1 X86.348 Y120.281 E32.71837
G1 X86.103 Y119.509 E32.89008
G1 X85.935 Y118.716 E33.06193
G1 X85.846 Y117.91 E33.23384
G1 X85.831 Y117.412 E33.33946
G1 X85.831 Y105.575 E35.84891
G1 X85.871 Y104.766 E36.02062
G1 X85.991 Y103.964 E36.19254
G1 X86.188 Y103.178 E36.36433
G1 X86.463 Y102.416 E36.53607
G1 X86.811 Y101.684 E36.7079
G1 X87.23 Y100.99 E36.87976
G1 X87.715 Y100.34 E37.05169
G1 X88.237 Y99.766 E37.21617
G1 X88.392 Y99.611 E37.26265
G1 X88.993 Y99.067 E37.4345
G1 X89.644 Y98.585 E37.60622
G1 X90.34 Y98.169 E37.77812
G1 X91.073 Y97.824 E37.94987
G1 X91.837 Y97.553 E38.12173
G1 X92.623 Y97.358 E38.29341
G1 X93.425 Y97.242 E38.4652
G1 X94.201 Y97.205 E38.6299
G1 X97.393 Y97.205 E39.30661
G1 X97.393 Y91.648 E40.48469
G1 X97.433 Y90.839 E40.65641
G1 X97.553 Y90.037 E40.82833
G1 X97.75 Y89.251 E41.00011
G1 X98.025 Y88.489 E41.17185
G1 X98.373 Y87.757 E41.34368
G1 X98.792 Y87.063 E41.51555
G1 X99.277 Y86.413 E41.68748
G0 F3927.3 X99.801 Y86.614
G1 F1800 X100.174 Y86.214 E41.80343
G1 X100.329 Y86.059 E41.8499
G1 X100.911 Y85.534 E42.01606
G1 X101.543 Y85.07 E42.18228
G1 X102.219 Y84.674 E42.34837
G1 X102.932 Y84.348 E42.51458
G1 X103.675 Y84.097 E42.68084
G1 X104.439 Y83.923 E42.84695
G1 X105.217 Y83.827 E43.01314
G1 X105.763 Y83.808 E43.12896
G1 X108.558 Y83.808 E43.7215
G1 X109.341 Y83.848 E43.88772
G1 X110.115 Y83.967 E44.05373
G1 X110.874 Y84.165 E44.22003
G1 X111.608 Y84.439 E44.38612
G1 X112.311 Y84.787 E44.55242
G1 X112.974 Y85.203 E44.71835
G1 X113.091 Y85.115 E44.74939
G1 X113.763 Y84.712 E44.91551
G1 X114.473 Y84.379 E45.08176
G1 X115.213 Y84.12 E45.24797
G1 X115.975 Y83.938 E45.41406
G1 X116.752 Y83.834 E45.58025
G1 X117.535 Y83.811 E45.74632
G1 X118.317 Y83.867 E45.91253
G1 X119.089 Y84.002 E46.07868
G1 X119.843 Y84.216 E46.24484
G1 X120.572 Y84.505 E46.41109
G1 X121.267 Y84.866 E46.57712
G1 X121.686 Y85.142 E46.68349
G1 X121.784 Y85.07 E46.70927
G1 X122.46 Y84.674 E46.87536
G1 X123.173 Y84.348 E47.04156
G1 X123.916 Y84.097 E47.20782
G1 X124.68 Y83.923 E47.37394
G1 X125.458 Y83.827 E47.54013
G1 X126.004 Y83.808 E47.65595
G1 X128.799 Y83.808 E48.24849
G1 X129.582 Y83.848 E48.4147
G1 X130.356 Y83.967 E48.58072
G1 X131.115 Y84.165 E48.74701
G1 X131.849 Y84.439 E48.91311
G1 X132.552 Y84.787 E49.0794
G1 X133.216 Y85.204 E49.24563
G1 X133.833 Y85.686 E49.41162
G1 X134.233 Y86.059 E49.52756
G1 X134.388 Y86.214 E49.57403
G1 X134.913 Y86.796 E49.7402
G1 X135.377 Y87.428 E49.90642
G1 X135.773 Y88.104 E50.07251
G1 X136.099 Y88.817 E50.23872
G1 X136.35 Y89.56 E50.40498
G1 X136.524 Y90.324 E50.57109
G1 X136.62 Y91.102 E50.73728
G1 X136.639 Y91.648 E50.8531
G1 X136.639 Y98.61 E52.32905
G1 X136.599 Y99.393 E52.49526
G1 X136.48 Y100.167 E52.66127
G1 X136.282 Y100.926 E52.82757
G1 X136.008 Y101.66 E52.99366
G1 X135.66 Y102.363 E53.15996
G1 X135.31 Y102.92 E53.29942
G1 X135.7 Y103.555 E53.4574
G1 X136.04 Y104.262 E53.62372
G1 X136.306 Y104.999 E53.78983
G1 X136.496 Y105.759 E53.95591
G1 X136.607 Y106.535 E54.12209
G1 X136.639 Y107.237 E54.27107
G1 X136.639 Y115.763 E56.07858
G1 X136.599 Y116.546 E56.2448
G1 X136.48 Y117.32 E56.41081
G1 X136.282 Y118.079 E56.57711
G1 X136.008 Y118.813 E56.7432
G1 X135.66 Y119.516 E56.9095
G1 X135.308 Y120.076 E57.04972
G1 X135.377 Y120.17 E57.07445
G1 X135.773 Y120.846 E57.24054
G1 X136.099 Y121.559 E57.40674
G1 X136.35 Y122.302 E57.573
G1 X136.524 Y123.066 E57.73912
G1 X136.62 Y123.844 E57.90531
G1 X136.639 Y124.39 E58.02113
G1 X136.639 Y131.352 E59.49707
G1 X136.599 Y132.135 E59.66328
G1 X136.48 Y132.909 E59.8293
G1 X136.282 Y133.668 E59.99559
G1 X136.008 Y134.402 E60.16169
G1 X135.66 Y135.105 E60.32799
G1 X135.243 Y135.769 E60.49421
G1 X134.761 Y136.386 E60.6602
G1 X134.388 Y136.786 E60.77615
G1 X134.233 Y136.941 E60.82262
G1 X133.651 Y137.466 E60.98878
G1 X133.019 Y137.93 E61.155
G1 X132.343 Y138.326 E61.32109
G1 X131.63 Y138.652 E61.4873
G1 X130.887 Y138.903 E61.65356
G1 X130.123 Y139.077 E61.81968
G1 X129.345 Y139.173 E61.98586
G1 X128.799 Y139.192 E62.10168
G1 X126.004 Y139.192 E62.69422
G1 X125.221 Y139.152 E62.86044
G1 X124.447 Y139.033 E63.02645
G1 X123.688 Y138.835 E63.19275
G1 X122.954 Y138.561 E63.35884
G1 X122.251 Y138.213 E63.52514
G1 X121.686 Y137.858 E63.6666
G1 X121.413 Y138.047 E63.73699
G1 X120.726 Y138.424 E63.90313
G1 X120.004 Y138.729 E64.06929
G1 X119.255 Y138.959 E64.23539
G1 X118.486 Y139.112 E64.40162
G1 X117.377 Y139.192 E64.63733
G1 X117.185 Y139.192 E64.67804
G1 X116.402 Y139.152 E64.84425
G1 X115.628 Y139.033 E65.01027
G1 X114.869 Y138.835 E65.17656
G1 X114.135 Y138.561 E65.34266
G1 X113.432 Y138.213 E65.50895
G1 X112.872 Y137.861 E65.64918
G1 X112.778 Y137.93 E65.6739
G1 X112.102 Y138.326 E65.83999
G1 X111.389 Y138.652 E66.0062
G1 X110.646 Y138.903 E66.17246
G1 X109.882 Y139.077 E66.33857
G1 X109.104 Y139.173 E66.50476
G1 X108.558 Y139.192 E66.62058
G1 X105.763 Y139.192 E67.21312
G1 X104.98 Y139.152 E67.37934
G1 X104.206 Y139.033 E67.54535
G1 X103.447 Y138.835 E67.71164
G1 X102.713 Y138.561 E67.87774
G1 X102.01 Y138.213 E68.04404
G1 X101.346 Y137.796 E68.21026
G1 X100.729 Y137.314 E68.37625
G1 X100.329 Y136.941 E68.4922
G1 X100.174 Y136.786 E68.53867
G1 X99.649 Y136.204 E68.70484
G1 X99.185 Y135.572 E68.87105
G1 X98.789 Y134.896 E69.03714
G1 X98.463 Y134.183 E69.20335
G1 X98.212 Y133.44 E69.36961
G1 X98.038 Y132.676 E69.53573
G1 X97.942 Y131.898 E69.70191
G1 X97.923 Y131.352 E69.81774
G1 X97.923 Y125.265 E71.10818
G1 X94.203 Y125.265 E71.89682
G1 X93.42 Y125.225 E72.06303
G1 X92.646 Y125.106 E72.22905
G1 X91.887 Y124.908 E72.39534
G1 X91.153 Y124.634 E72.56144
G1 X90.45 Y124.286 E72.72773
G1 X89.786 Y123.869 E72.89396
G1 X89.169 Y123.387 E73.05995
G1 X88.588 Y122.827 E73.23102
G1 X88.431 Y122.659 E73.27977
G1 X87.926 Y122.06 E73.44586
G1 X87.484 Y121.412 E73.61215
G1 X87.111 Y120.723 E73.77825
G1 X86.81 Y120 E73.94428
G1 X86.584 Y119.249 E74.11054
G1 X86.435 Y118.479 E74.27681
G1 X86.361 Y117.412 E74.50356
G1 X86.361 Y105.575 E77.013
G1 X86.401 Y104.792 E77.17922
G1 X86.52 Y104.018 E77.34523
G1 X86.718 Y103.259 E77.51153
G1 X86.992 Y102.525 E77.67762
G1 X87.34 Y101.822 E77.84392
G1 X87.757 Y101.158 E78.01014
G1 X88.239 Y100.541 E78.17613
G1 X88.612 Y100.141 E78.29208
G1 X88.767 Y99.986 E78.33855
G1 X89.349 Y99.461 E78.50472
G1 X89.981 Y98.997 E78.67093
G1 X90.657 Y98.601 E78.83702
G1 X91.37 Y98.275 E79.00323
G1 X92.113 Y98.024 E79.16949
G1 X92.877 Y97.85 E79.33561
G1 X93.655 Y97.754 E79.50179
G1 X94.201 Y97.735 E79.61762
G1 X97.923 Y97.735 E80.40668
G1 X97.923 Y91.648 E81.69712
G1 X97.963 Y90.865 E81.86334
G1 X98.082 Y90.091 E82.02935
G1 X98.28 Y89.332 E82.19565
G1 X98.554 Y88.598 E82.36174
G1 X98.902 Y87.895 E82.52804
G1 X99.319 Y87.231 E82.69426
G1 X99.801 Y86.614 E82.86025
G0 F3927.3 X99.846 Y87.407
G1 F1800 X100.549 Y86.589 E83.08891
G1 X100.704 Y86.434 E83.13538
G1 X101.266 Y85.928 E83.2957
G1 X101.879 Y85.484 E83.45616
G1 X102.534 Y85.108 E83.61628
G1 X103.226 Y84.803 E83.7766
G1 X103.947 Y84.572 E83.9371
G1 X104.688 Y84.419 E84.09751
G1 X105.763 Y84.338 E84.32606
G1 X108.558 Y84.338 E84.9186
G1 X109.313 Y84.378 E85.07888
G1 X110.06 Y84.497 E85.23924
G1 X110.79 Y84.695 E85.39959
G1 X111.495 Y84.969 E85.55994
G1 X112.167 Y85.315 E85.72018
G1 X112.799 Y85.731 E85.88059
G1 X112.963 Y85.872 E85.92644
G1 X113.409 Y85.54 E86.04431
G1 X114.059 Y85.155 E86.20447
G1 X114.747 Y84.84 E86.36489
G1 X115.464 Y84.599 E86.52525
G1 X116.202 Y84.436 E86.68547
G1 X116.954 Y84.352 E86.84589
G1 X117.71 Y84.347 E87.00616
G1 X118.463 Y84.422 E87.16659
G1 X119.203 Y84.576 E87.32683
G1 X119.923 Y84.807 E87.48713
G1 X120.615 Y85.114 E87.64763
G1 X121.27 Y85.491 E87.80785
G1 X121.69 Y85.796 E87.91789
G1 X122.12 Y85.484 E88.03052
G1 X122.775 Y85.108 E88.19063
G1 X123.467 Y84.803 E88.35095
G1 X124.188 Y84.572 E88.51146
G1 X124.929 Y84.419 E88.67186
G1 X126.004 Y84.338 E88.90041
G1 X128.799 Y84.338 E89.49295
G1 X129.554 Y84.378 E89.65323
G1 X130.301 Y84.497 E89.81359
G1 X131.031 Y84.695 E89.97394
G1 X131.736 Y84.969 E90.1343
G1 X132.408 Y85.315 E90.29453
G1 X133.04 Y85.731 E90.45494
G1 X133.858 Y86.434 E90.6836
G1 X134.013 Y86.589 E90.73007
G1 X134.519 Y87.151 E90.89039
G1 X134.963 Y87.764 E91.05085
G1 X135.339 Y88.419 E91.21097
G1 X135.644 Y89.111 E91.37129
G1 X135.875 Y89.832 E91.53179
G1 X136.028 Y90.573 E91.6922
G1 X136.109 Y91.648 E91.92074
G1 X136.109 Y98.61 E93.39669
G1 X136.069 Y99.365 E93.55697
G1 X135.95 Y100.112 E93.71733
G1 X135.752 Y100.842 E93.87768
G1 X135.478 Y101.547 E94.03804
G1 X135.132 Y102.219 E94.19828
G1 X134.716 Y102.851 E94.35868
G1 X134.654 Y102.923 E94.37882
G1 X134.999 Y103.409 E94.50518
G1 X135.369 Y104.069 E94.66558
G1 X135.668 Y104.763 E94.82578
G1 X135.891 Y105.486 E94.98619
G1 X136.037 Y106.228 E95.14651
G1 X136.109 Y107.237 E95.36096
G1 X136.109 Y115.763 E97.16847
G1 X136.069 Y116.518 E97.32875
G1 X135.95 Y117.265 E97.48912
G1 X135.752 Y117.995 E97.64947
G1 X135.478 Y118.7 E97.80982
G1 X135.132 Y119.372 E97.97006
G1 X134.716 Y120.004 E98.13046
G1 X134.654 Y120.079 E98.15109
G1 X134.963 Y120.506 E98.26283
G1 X135.339 Y121.161 E98.42294
G1 X135.644 Y121.853 E98.58327
G1 X135.875 Y122.574 E98.74377
G1 X136.028 Y123.315 E98.90418
G1 X136.109 Y124.39 E99.13272
G1 X136.109 Y131.352 E100.60867
G1 X136.069 Y132.107 E100.76895
G1 X135.95 Y132.854 E100.92931
G1 X135.752 Y133.584 E101.08966
G1 X135.478 Y134.289 E101.25001
G1 X135.132 Y134.961 E101.41025
G1 X134.716 Y135.593 E101.57066
G1 X134.013 Y136.411 E101.79932
G1 X133.858 Y136.566 E101.84579
G1 X133.296 Y137.072 E102.00611
G1 X132.683 Y137.516 E102.16657
G1 X132.028 Y137.892 E102.32668
G1 X131.336 Y138.197 E102.48701
G1 X130.615 Y138.428 E102.64751
G1 X129.874 Y138.581 E102.80792
G1 X128.799 Y138.662 E103.03646
G1 X126.004 Y138.662 E103.629
G1 X125.249 Y138.622 E103.78929
G1 X124.502 Y138.503 E103.94965
G1 X123.772 Y138.305 E104.11
G1 X123.067 Y138.031 E104.27035
G1 X122.395 Y137.685 E104.43059
G1 X121.763 Y137.269 E104.59099
G1 X121.69 Y137.207 E104.6113
G1 X121.544 Y137.324 E104.65096
G1 X120.906 Y137.731 E104.8114
G1 X120.23 Y138.069 E104.97163
G1 X119.521 Y138.333 E105.13202
G1 X118.789 Y138.521 E105.29224
G1 X118.04 Y138.631 E105.45273
G1 X117.377 Y138.662 E105.59344
G1 X117.185 Y138.662 E105.63414
G1 X116.43 Y138.622 E105.79443
G1 X115.683 Y138.503 E105.95479
G1 X114.953 Y138.305 E106.11514
G1 X114.248 Y138.031 E106.27549
G1 X113.576 Y137.685 E106.43573
G1 X112.944 Y137.269 E106.59613
G1 X112.869 Y137.207 E106.61676
G1 X112.442 Y137.516 E106.7285
G1 X111.787 Y137.892 E106.88861
G1 X111.095 Y138.197 E107.04894
G1 X110.374 Y138.428 E107.20944
G1 X109.633 Y138.581 E107.36985
